;This Gcode has been generated specifically for the LulzBot Mini
;Basic settings: Layer height: 0.25 Walls: 1 Fill: 20
;Filament Diameter: 2.85
;Nozzle Size: 0.5
G26                          ; clear potential 'probe fail' condition
G21                          ; metric values
G90                          ; absolute positioning
M82                          ; set extruder to absolute mode
M107                         ; start with the fan off
G92 E0                       ; set extruder position to 0
M140 S60; get bed heating up
G28                          ; home all
M109 R140                    ; set to cleaning temp and wait
G1 Z150 E-30 F75             ; suck up XXmm of filament
M109 R140                    ; heat up rest of way
G1 X45 Y174 F11520           ; move behind scraper
G1 Z0  F1200                 ; CRITICAL: set Z to height of top of scraper
G1 X45 Y174 Z-.5 F4000       ; wiping ; plunge into wipe pad
G1 X55 Y172 Z-.5 F4000       ; wiping
G1 X45 Y174 Z0 F4000         ; wiping
G1 X55 Y172 F4000            ; wiping
G1 X45 Y174 F4000            ; wiping
G1 X55 Y172 F4000            ; wiping
G1 X45 Y174 F4000            ; wiping
G1 X55 Y172 F4000            ; wiping
G1 X60 Y174 F4000            ; wiping
G1 X80 Y172 F4000            ; wiping
G1 X60 Y174 F4000            ; wiping
G1 X80 Y172 F4000            ; wiping
G1 X60 Y174 F4000            ; wiping
G1 X90 Y172 F4000            ; wiping
G1 X80 Y174 F4000            ; wiping
G1 X100 Y172 F4000           ; wiping
G1 X80 Y174 F4000            ; wiping
G1 X100 Y172 F4000           ; wiping
G1 X80 Y174 F4000            ; wiping
G1 X100 Y172 F4000           ; wiping
G1 X110 Y174 F4000           ; wiping
G1 X100 Y172 F4000           ; wiping
G1 X110 Y174 F4000           ; wiping
G1 X100 Y172 F4000           ; wiping
G1 X110 Y174 F4000           ; wiping
G1 X115 Y172 Z-0.5 F1000     ; wipe slower and bury noz in cleanish area
G1 Z10                       ; raise z
G28 X0 Y0                    ; home x and y
M109 R140                    ; set to probing temp
M204 S300                    ; Set probing acceleration
G29                          ; Probe
M204 S2000                   ; Restore standard acceleration
G1 X5 Y15 Z10 F5000          ; get out the way
G4 S1                        ; pause
M400                         ; clear buffer
M109 R205    ; set extruder temp and wait
G4 S15                       ; wait for bed to temp up
G1 Z2 E0 F75                 ; extrude filament back into nozzle
M140 S60; get bed temping up during first layer

;Layer count: 44
;LAYER:0
M107
G0 F10500 X58.435 Y43.665 Z0.425
G0 X58.240 Y43.971
;TYPE:SKIRT
G1 F900 X58.435 Y43.665 E0.01511
G1 X60.532 Y41.020 E0.15565
G1 X60.748 Y40.750 E0.17005
G1 X62.217 Y39.318 E0.25547
G1 X62.365 Y39.161 E0.26445
G1 X62.601 Y38.951 E0.27761
G1 X64.714 Y37.266 E0.39014
G1 X65.015 Y37.041 E0.40579
G1 X67.448 Y35.536 E0.52491
G1 X69.481 Y34.533 E0.61930
G1 X69.854 Y34.365 E0.63633
G1 X72.522 Y33.407 E0.75437
G1 X74.161 Y32.975 E0.82494
G1 X76.162 Y32.624 E0.90953
G1 X76.549 Y32.551 E0.92593
G1 X79.308 Y32.344 E1.04113
G1 X79.606 Y32.327 E1.05356
G1 X81.719 Y32.379 E1.14157
G1 X82.122 Y32.403 E1.15838
G1 X84.979 Y32.788 E1.27841
G1 X87.599 Y33.470 E1.39114
G1 X88.040 Y33.572 E1.40999
G1 X90.160 Y34.379 E1.50444
G1 X92.338 Y35.401 E1.60461
G1 X93.674 Y36.171 E1.66882
G1 X95.584 Y37.469 E1.76497
G1 X97.491 Y39.005 E1.86693
G1 X99.059 Y40.567 E1.95909
G1 X100.715 Y42.471 E2.06415
G1 X101.926 Y44.204 E2.15219
G1 X102.131 Y44.506 E2.16738
G1 X103.749 Y47.490 E2.30872
G1 X103.959 Y47.895 E2.32772
G1 X105.262 Y51.712 E2.49565
G1 X105.409 Y52.103 E2.51305
G1 X105.988 Y55.230 E2.64546
G1 X106.150 Y56.966 E2.71806
G1 X106.171 Y59.029 E2.80396
G1 X106.173 Y59.372 E2.81824
G1 X105.926 Y62.125 E2.93333
G1 X105.886 Y62.467 E2.94767
G1 X105.469 Y64.628 E3.03931
G1 X104.894 Y66.566 E3.12348
G1 X104.779 Y66.979 E3.14133
G1 X103.968 Y69.077 E3.23499
G1 X103.024 Y70.938 E3.32188
G1 X102.853 Y71.295 E3.33836
G1 X101.285 Y73.748 E3.45958
G1 X99.889 Y75.538 E3.55410
G1 X99.603 Y75.878 E3.57260
G1 X97.081 Y78.347 E3.71955
G1 X95.149 Y79.873 E3.82206
G1 X91.123 Y82.225 E4.01621
G1 X89.138 Y83.025 E4.10532
G1 X88.773 Y83.174 E4.12174
G1 X86.002 Y83.985 E4.24195
G1 X84.848 Y84.207 E4.29089
G1 X87.181 Y84.879 E4.39198
G1 X88.042 Y85.323 E4.43231
G1 X90.740 Y86.723 E4.55888
G1 X91.511 Y87.348 E4.60020
G1 X93.914 Y89.302 E4.72916
G1 X94.542 Y90.073 E4.77057
G1 X96.493 Y92.476 E4.89945
G1 X96.945 Y93.345 E4.94023
G1 X98.336 Y96.032 E5.06622
G1 X98.598 Y96.938 E5.10549
G1 X99.400 Y99.730 E5.22644
G1 X99.483 Y100.618 E5.26358
G1 X99.732 Y103.352 E5.37789
G1 X99.655 Y104.232 E5.41467
G1 X99.400 Y106.982 E5.52966
G1 X99.145 Y107.872 E5.56821
G1 X98.338 Y110.677 E5.68974
G1 X97.894 Y111.537 E5.73004
G1 X96.495 Y114.236 E5.85662
G1 X95.870 Y115.007 E5.89795
G1 X93.915 Y117.411 E6.02697
G1 X93.144 Y118.038 E6.06835
G1 X90.744 Y119.988 E6.19711
G1 X89.875 Y120.441 E6.23791
G1 X87.186 Y121.834 E6.36401
G1 X86.279 Y122.096 E6.40332
G1 X83.486 Y122.897 E6.52430
G1 X82.600 Y122.980 E6.56135
G1 X79.865 Y123.231 E6.67571
G1 X78.984 Y123.151 E6.71254
G1 X76.239 Y122.897 E6.82733
G1 X75.348 Y122.643 E6.86591
G1 X72.542 Y121.836 E6.98748
G1 X71.681 Y121.391 E7.02783
G1 X68.982 Y119.991 E7.15443
G1 X68.213 Y119.366 E7.19569
G1 X65.809 Y117.412 E7.32469
G1 X65.181 Y116.641 E7.36609
G1 X63.231 Y114.241 E7.49485
G1 X62.777 Y113.372 E7.53567
G1 X61.386 Y110.682 E7.66177
G1 X61.123 Y109.777 E7.70101
G1 X60.321 Y106.981 E7.82212
G1 X60.071 Y104.243 E7.93660
G1 X60.070 Y104.243 E7.93664
G1 X59.988 Y103.359 E7.97361
G1 X60.240 Y100.620 E8.08814
G1 X60.320 Y99.734 E8.12518
G1 X60.577 Y98.839 E8.16395
G1 X60.578 Y98.839 E8.16399
G1 X61.383 Y96.037 E8.28538
G1 X61.827 Y95.176 E8.32572
G1 X63.227 Y92.479 E8.45224
G1 X63.852 Y91.709 E8.49354
G1 X65.807 Y89.304 E8.62259
G1 X66.578 Y88.675 E8.66402
G1 X68.980 Y86.725 E8.79284
G1 X69.848 Y86.273 E8.83359
G1 X72.537 Y84.881 E8.95967
G1 X73.443 Y84.619 E8.99894
G1 X75.023 Y84.165 E9.06739
G1 X73.589 Y83.883 E9.12824
G1 X71.178 Y83.165 E9.23299
G1 X69.201 Y82.344 E9.32212
G1 X68.829 Y82.177 E9.33910
G1 X65.738 Y80.465 E9.48622
G1 X63.869 Y79.112 E9.58230
G1 X63.539 Y78.855 E9.59971
G1 X61.050 Y76.560 E9.74068
G1 X60.803 Y76.318 E9.75508
G1 X59.295 Y74.522 E9.85273
G1 X58.106 Y72.851 E9.93812
G1 X58.107 Y72.851 E9.93816
G1 X57.935 Y72.611 E9.95046
G1 X56.838 Y70.689 E10.04260
G1 X55.804 Y68.517 E10.14276
G1 X55.306 Y67.186 E10.20194
G1 X55.192 Y66.888 E10.21522
G1 X54.435 Y64.139 E10.33395
G1 X54.121 Y62.481 E10.40421
G1 X53.887 Y60.219 E10.49890
G1 X53.824 Y57.777 E10.60061
G1 X53.991 Y55.689 E10.68783
G1 X54.017 Y55.315 E10.70344
G1 X54.539 Y52.438 E10.82519
G1 X55.402 Y49.585 E10.94929
G1 X55.532 Y49.202 E10.96614
G1 X56.953 Y46.108 E11.10790
G1 X57.124 Y45.758 E11.12412
G1 X58.240 Y43.971 E11.21185
G1 F600 E9.71185
G1 Z0.525
G0 F10500 X61.304 Y45.906
;TYPE:WALL-OUTER
G1 Z0.425
G1 F600 E11.21185
G1 F900 X61.392 Y45.767 E11.21870
G1 X63.367 Y43.278 E11.35099
G1 X63.441 Y43.185 E11.35594
G1 X64.802 Y41.858 E11.43509
G1 X64.944 Y41.718 E11.44339
G1 X66.925 Y40.138 E11.54890
G1 X67.061 Y40.037 E11.55596
G1 X69.203 Y38.712 E11.66083
G1 X71.032 Y37.809 E11.74576
G1 X73.596 Y36.872 E11.85942
G1 X74.946 Y36.516 E11.91756
G1 X76.818 Y36.188 E11.99669
G1 X77.026 Y36.149 E12.00550
G1 X79.554 Y35.960 E12.11106
G1 X79.663 Y35.953 E12.11561
G1 X81.573 Y36.001 E12.19516
G1 X81.769 Y36.012 E12.20333
G1 X84.275 Y36.350 E12.30862
G1 X86.740 Y36.991 E12.41467
G1 X86.980 Y37.046 E12.42493
G1 X88.751 Y37.721 E12.50384
G1 X90.660 Y38.617 E12.59165
G1 X91.749 Y39.244 E12.64397
G1 X93.421 Y40.381 E12.72816
G1 X95.072 Y41.710 E12.81641
G1 X96.410 Y43.043 E12.89505
G1 X97.852 Y44.700 E12.98651
G1 X98.943 Y46.263 E13.06588
G1 X99.032 Y46.392 E13.07240
G1 X100.546 Y49.186 E13.20472
G1 X100.618 Y49.325 E13.21124
G1 X101.849 Y52.934 E13.37001
G1 X101.904 Y53.079 E13.37647
G1 X102.394 Y55.729 E13.48868
G1 X102.528 Y57.157 E13.54840
G1 X102.547 Y59.057 E13.62752
G1 X102.548 Y59.217 E13.63418
G1 X102.322 Y61.744 E13.73982
G1 X102.301 Y61.917 E13.74708
G1 X101.946 Y63.765 E13.82543
G1 X101.402 Y65.595 E13.90492
G1 X101.334 Y65.839 E13.91547
G1 X100.652 Y67.604 E13.99426
G1 X99.790 Y69.302 E14.07355
G1 X99.683 Y69.525 E14.08384
G1 X98.323 Y71.654 E14.18903
G1 X97.076 Y73.252 E14.27343
G1 X96.940 Y73.414 E14.28224
G1 X94.684 Y75.622 E14.41368
G1 X93.099 Y76.874 E14.49778
G1 X89.525 Y78.961 E14.67011
G1 X87.765 Y79.671 E14.74913
G1 X87.570 Y79.751 E14.75791
G1 X85.148 Y80.459 E14.86297
G1 X83.125 Y80.849 E14.94876
G1 X81.217 Y81.011 E15.02849
G1 X81.052 Y81.034 E15.03543
G1 X79.155 Y81.043 E15.11441
G1 X78.995 Y81.046 E15.12108
G1 X77.099 Y80.866 E15.20038
G1 X74.459 Y80.361 E15.31230
G1 X72.394 Y79.746 E15.40201
G1 X70.636 Y79.016 E15.48127
G1 X67.688 Y77.402 E15.62121
G1 X66.040 Y76.209 E15.70592
G1 X65.889 Y76.093 E15.71385
G1 X63.544 Y73.930 E15.84669
G1 X63.468 Y73.856 E15.85110
G1 X62.161 Y72.299 E15.93575
G1 X60.992 Y70.656 E16.01971
G1 X60.053 Y69.011 E16.09858
G1 X59.141 Y67.094 E16.18697
G1 X58.699 Y65.914 E16.23943
G1 X58.641 Y65.760 E16.24629
G1 X57.969 Y63.322 E16.35159
G1 X57.708 Y61.944 E16.40998
G1 X57.507 Y59.991 E16.49173
G1 X57.451 Y57.873 E16.57995
G1 X57.603 Y55.977 E16.65915
G1 X57.618 Y55.773 E16.66767
G1 X58.068 Y53.290 E16.77274
G1 X58.855 Y50.687 E16.88597
G1 X58.900 Y50.552 E16.89189
G1 X60.231 Y47.655 E17.02464
G1 X61.304 Y45.906 E17.11008
G0 F10500 X62.113 Y46.151
G1 F900 X61.427 Y47.206 E17.16247
G1 X60.549 Y48.846 E17.23993
G1 X60.423 Y49.076 E17.25085
G1 X59.478 Y51.381 E17.35458
G1 X59.403 Y51.583 E17.36355
G1 X58.753 Y53.983 E17.46708
G1 X58.704 Y54.193 E17.47606
G1 X58.356 Y56.650 E17.57939
G1 X58.339 Y56.764 E17.58419
G1 X58.263 Y58.794 E17.66877
G1 X58.388 Y60.656 E17.74647
G1 X58.404 Y60.917 E17.75736
G1 X58.828 Y63.371 E17.86106
G1 X58.872 Y63.582 E17.87003
G1 X59.595 Y65.963 E17.97364
G1 X59.664 Y66.166 E17.98257
G1 X60.680 Y68.440 E18.08627
G1 X60.801 Y68.677 E18.09735
G1 X62.448 Y71.322 E18.22709
G1 X63.730 Y72.901 E18.31178
G1 X65.630 Y74.800 E18.42363
G1 X65.789 Y74.947 E18.43265
G1 X67.774 Y76.464 E18.53667
G1 X69.624 Y77.612 E18.62733
G1 X71.311 Y78.417 E18.70516
G1 X71.503 Y78.507 E18.71399
G1 X73.846 Y79.342 E18.81756
G1 X74.051 Y79.408 E18.82652
G1 X76.481 Y79.945 E18.93014
G1 X76.693 Y79.984 E18.93912
G1 X79.168 Y80.216 E19.04262
G1 X79.382 Y80.229 E19.05155
G1 X81.867 Y80.153 E19.15507
G1 X82.082 Y80.140 E19.16404
G1 X84.543 Y79.754 E19.26776
G1 X86.613 Y79.219 E19.35679
G1 X88.360 Y78.557 E19.43457
G1 X88.506 Y78.508 E19.44099
G1 X90.386 Y77.613 E19.52768
G1 X91.989 Y76.631 E19.60596
G1 X93.712 Y75.385 E19.69449
G1 X95.104 Y74.123 E19.77273
G1 X96.602 Y72.552 E19.86311
G1 X97.373 Y71.576 E19.91490
G1 X97.477 Y71.450 E19.92170
G1 X98.511 Y69.894 E19.99949
G1 X98.627 Y69.716 E20.00834
G1 X99.779 Y67.512 E20.11189
G1 X99.872 Y67.319 E20.12081
G1 X100.744 Y64.988 E20.22444
G1 X100.813 Y64.785 E20.23336
G1 X101.390 Y62.354 E20.33740
G1 X101.679 Y60.245 E20.42603
G1 X101.726 Y58.381 E20.50367
G1 X101.736 Y58.117 E20.51467
G1 X101.544 Y55.635 E20.61833
G1 X101.520 Y55.414 E20.62758
G1 X100.461 Y51.205 E20.80830
G1 X100.375 Y50.890 E20.82189
G1 X98.611 Y47.251 E20.99028
G1 X97.557 Y45.695 E21.06853
G1 X97.406 Y45.487 E21.07923
G1 X96.227 Y44.025 E21.15744
G1 X94.909 Y42.702 E21.23519
G1 X94.766 Y42.553 E21.24379
G1 X93.336 Y41.336 E21.32198
G1 X92.119 Y40.448 E21.38471
G1 X90.509 Y39.483 E21.46287
G1 X88.561 Y38.514 E21.55346
G1 X86.807 Y37.869 E21.63127
G1 X86.607 Y37.797 E21.64012
G1 X84.196 Y37.186 E21.74368
G1 X83.979 Y37.137 E21.75295
G1 X79.656 Y36.791 E21.93352
G1 X79.336 Y36.770 E21.94688
G1 X77.453 Y36.926 E22.02555
G1 X74.799 Y37.407 E22.13786
G1 X72.236 Y38.213 E22.24973
G1 X70.371 Y39.019 E22.33432
G1 X70.177 Y39.109 E22.34323
G1 X68.017 Y40.372 E22.44741
G1 X65.871 Y41.992 E22.55937
G1 X65.704 Y42.128 E22.56834
G1 X63.919 Y43.881 E22.67251
G1 X62.238 Y45.981 E22.78451
G1 X62.113 Y46.151 E22.79330
G0 F10500 X62.124 Y45.773
;TYPE:SKIN
G1 F900 X62.063 Y45.270 E22.80842
G1 X62.713 Y45.036 E22.82356
G1 X62.845 Y44.284 E22.83877
G1 X63.499 Y44.054 E22.85415
G1 X63.644 Y43.316 E22.86958
G1 X64.355 Y43.142 E22.88577
G1 X64.526 Y42.430 E22.90192
G1 X65.247 Y42.267 E22.91802
G1 X65.454 Y41.590 E22.93345
G1 X66.208 Y41.460 E22.94848
G1 X66.437 Y40.805 E22.96425
G1 X67.215 Y40.700 E22.98077
G1 X67.452 Y40.052 E22.99778
G1 X67.980 Y40.138 E23.02006
G1 F600 E21.52006
G1 Z0.525
G0 F10500 X61.759 Y46.292
G1 Z0.425
G1 F600 E23.02006
G1 F900 X61.321 Y46.296 E23.03590
G1 X61.246 Y47.105 E23.05106
G1 X60.648 Y47.391 E23.06669
G1 X60.619 Y48.245 E23.08388
G1 X60.053 Y48.563 E23.09984
G1 X59.901 Y49.295 E23.11468
G1 X59.634 Y49.912 E23.13081
G1 X59.368 Y50.530 E23.14816
G1 X59.136 Y51.182 E23.16651
G1 X58.915 Y51.845 E23.18313
G1 X58.718 Y52.532 E23.20070
G1 X58.525 Y53.222 E23.21922
G1 X58.362 Y53.944 E23.23835
G1 X58.220 Y54.685 E23.25664
G1 X58.097 Y55.446 E23.27642
G1 X58.002 Y56.235 E23.29770
G1 X57.917 Y57.034 E23.31745
G1 X57.880 Y57.881 E23.33914
G1 X57.877 Y58.762 E23.36145
G1 X57.904 Y59.673 E23.38409
G1 X57.984 Y60.636 E23.40894
G1 X58.089 Y61.626 E23.43461
G1 X58.285 Y62.705 E23.46508
G1 X58.530 Y63.834 E23.49448
G1 X58.881 Y65.069 E23.52766
G1 X59.316 Y66.387 E23.56363
G1 X60.047 Y67.561 E23.62122
G0 F10500 X60.009 Y68.406
G1 F900 X60.979 Y69.377 E23.67837
G0 F10500 X61.073 Y70.355
G1 F900 X62.708 Y71.989 E23.77461
G1 F600 E22.27461
G1 Z0.525
G0 F10500 X66.434 Y75.715
G1 Z0.425
G1 F600 E23.77461
G1 F900 X68.090 Y77.372 E23.87216
G0 F10500 X69.223 Y77.621
G1 F900 X70.518 Y78.473 E23.92028
G1 X72.077 Y79.149 E23.96239
G1 X73.455 Y79.642 E24.00061
G1 X74.662 Y79.966 E24.03217
G1 X75.787 Y80.207 E24.06122
G1 X76.855 Y80.392 E24.08779
G1 X77.861 Y80.514 E24.11399
G1 X78.838 Y80.606 E24.14027
G1 X79.740 Y80.625 E24.16335
G1 X80.609 Y80.610 E24.18616
G1 X81.466 Y80.583 E24.20884
G1 X82.274 Y80.507 E24.22895
G1 X83.064 Y80.413 E24.24978
G1 X83.827 Y80.293 E24.27052
G1 X84.571 Y80.153 E24.28984
G1 X85.292 Y79.990 E24.30879
G1 X85.986 Y79.800 E24.32672
G1 X86.670 Y79.600 E24.34358
G1 X87.332 Y79.378 E24.36037
G1 X87.981 Y79.142 E24.37813
G1 X88.612 Y78.890 E24.39528
G1 X89.226 Y78.620 E24.41226
G1 X89.948 Y78.458 E24.42922
G1 X90.275 Y77.902 E24.44379
G1 X90.952 Y77.695 E24.45638
G1 X91.623 Y77.481 E24.46957
G1 X91.938 Y76.913 E24.48328
G1 X92.736 Y76.827 E24.49799
G1 X92.979 Y76.186 E24.51511
G1 X93.753 Y76.076 E24.53105
G1 X93.984 Y75.424 E24.54584
G1 X94.720 Y75.275 E24.56190
G1 X94.916 Y74.588 E24.57723
G1 X95.615 Y74.402 E24.59154
G1 X95.802 Y73.706 E24.60638
G1 X96.508 Y73.528 E24.62200
G1 X96.660 Y72.795 E24.63860
G1 X97.324 Y72.576 E24.65393
G1 X97.456 Y71.825 E24.66902
G1 X98.091 Y71.575 E24.68393
G1 X98.181 Y70.781 E24.69990
G1 X98.793 Y70.509 E24.71534
G1 X98.869 Y69.702 E24.73029
G1 X99.468 Y69.417 E24.74682
G1 X99.483 Y68.548 E24.76425
G1 X100.075 Y68.256 E24.78136
G1 X100.224 Y67.521 E24.79819
G1 X100.479 Y66.892 E24.81628
G1 X100.722 Y66.251 E24.83469
G1 X100.953 Y65.598 E24.85347
G1 X101.174 Y64.936 E24.87104
G1 X101.373 Y64.250 E24.88908
G1 X101.545 Y63.538 E24.90904
G1 X101.701 Y62.811 E24.92920
G1 X101.852 Y62.077 E24.94832
G1 X101.943 Y61.285 E24.96951
G1 X102.032 Y60.491 E24.98899
G1 X102.106 Y59.680 E25.00836
G1 X102.125 Y58.815 E25.03067
G1 X102.132 Y57.938 E25.05252
G1 X102.077 Y57.000 E25.07756
G1 X101.995 Y56.034 E25.10430
G1 X101.849 Y55.004 E25.13119
G1 X101.600 Y53.871 E25.16380
G1 X101.275 Y52.662 E25.20217
G1 X100.898 Y51.401 E25.23715
G1 X100.416 Y50.478 E25.28051
G0 F10500 X100.510 Y49.687
G1 F900 X99.585 Y48.762 E25.33498
G0 F10500 X99.590 Y47.883
G1 F900 X98.701 Y46.995 E25.38730
G0 F10500 X98.260 Y45.669
G1 F900 X92.843 Y40.253 E25.70625
G0 F10500 X91.571 Y39.865
G1 F900 X90.482 Y38.776 E25.77037
G0 F10500 X89.618 Y38.795
G1 F900 X88.419 Y38.038 E25.81742
G1 X87.000 Y37.503 E25.85581
G1 X85.777 Y37.165 E25.88658
G1 X84.589 Y36.860 E25.91804
G1 X83.527 Y36.682 E25.94587
G1 X82.536 Y36.574 E25.97483
G1 X81.546 Y36.468 E26.00726
G1 X80.609 Y36.415 E26.03696
G1 X79.677 Y36.367 E26.06345
G1 X78.838 Y36.413 E26.08349
G1 X78.019 Y36.477 E26.10319
G1 X77.218 Y36.560 E26.12325
G1 X76.453 Y36.679 E26.14358
G1 X75.703 Y36.812 E26.16413
G1 X74.953 Y36.946 E26.18489
G1 X74.261 Y37.138 E26.20345
G1 X73.575 Y37.337 E26.22344
G1 X72.912 Y37.558 E26.24239
G1 X72.256 Y37.785 E26.25987
G1 X71.623 Y38.036 E26.27633
G1 X70.990 Y38.287 E26.29462
G1 X70.386 Y38.567 E26.31143
G1 X69.806 Y38.871 E26.32678
G1 X69.092 Y39.041 E26.34346
G1 X68.816 Y39.649 E26.35983
G1 X68.271 Y39.545 E26.38293
G1 F600 E24.88293
G1 Z0.525
G0 F10500 X77.029 Y88.011
;TYPE:WALL-INNER
G1 Z0.425
G1 F600 E26.38293
G1 F900 X79.863 Y87.751 E26.50143
G1 X82.695 Y88.011 E26.61984
G1 X83.203 Y88.156 E26.64184
G1 X85.600 Y88.845 E26.74568
G1 X86.090 Y89.098 E26.76865
G1 X88.400 Y90.296 E26.87700
G1 X88.832 Y90.646 E26.90015
G1 X90.892 Y92.321 E27.01070
G1 X91.245 Y92.755 E27.03399
G1 X92.924 Y94.821 E27.14484
G1 X93.173 Y95.301 E27.16735
G1 X94.370 Y97.615 E27.27583
G1 X94.515 Y98.115 E27.29751
G1 X95.206 Y100.524 E27.40186
G1 X95.467 Y103.360 E27.52044
G1 X95.206 Y106.193 E27.63890
G1 X95.061 Y106.700 E27.66086
G1 X94.372 Y109.096 E27.76467
G1 X94.120 Y109.585 E27.78757
G1 X92.922 Y111.896 E27.89596
G1 X92.572 Y112.328 E27.91911
G1 X90.896 Y114.389 E28.02972
G1 X90.462 Y114.742 E28.05301
G1 X88.399 Y116.419 E28.16371
G1 X87.917 Y116.670 E28.18634
G1 X85.603 Y117.868 E28.29484
G1 X85.104 Y118.013 E28.31647
G1 X82.695 Y118.703 E28.42081
G1 X79.860 Y118.964 E28.53936
G1 X77.027 Y118.703 E28.65782
G1 X76.520 Y118.558 E28.67977
G1 X74.119 Y117.867 E28.78380
G1 X73.633 Y117.617 E28.80656
G1 X71.322 Y116.417 E28.91498
G1 X70.890 Y116.067 E28.93813
G1 X68.830 Y114.393 E29.04866
G1 X66.799 Y111.894 E29.18274
G1 X66.547 Y111.411 E29.20543
G1 X65.350 Y109.099 E29.31383
G1 X65.205 Y108.598 E29.33555
G1 X64.516 Y106.193 E29.43971
G1 X64.301 Y103.849 E29.53772
G1 X64.255 Y103.356 E29.55834
G1 X64.471 Y101.009 E29.65648
G1 X64.515 Y100.518 E29.67700
G1 X65.349 Y97.618 E29.80265
G1 X65.601 Y97.130 E29.82552
G1 X66.801 Y94.818 E29.93398
G1 X67.150 Y94.387 E29.95707
G1 X68.826 Y92.325 E30.06771
G1 X69.260 Y91.972 E30.09100
G1 X71.325 Y90.294 E30.20180
G1 X71.805 Y90.045 E30.22431
G1 X74.120 Y88.847 E30.33284
G1 X74.620 Y88.702 E30.35452
G1 X77.029 Y88.011 E30.45887
G0 F10500 X77.525 Y93.623
G1 F900 X75.758 Y94.159 E30.53576
G1 X74.478 Y94.844 E30.59621
G1 X74.133 Y95.027 E30.61247
G1 X73.008 Y95.951 E30.67308
G1 X72.704 Y96.198 E30.68939
G1 X71.783 Y97.323 E30.74993
G1 X71.535 Y97.624 E30.76617
G1 X70.848 Y98.909 E30.82684
G1 X70.664 Y99.252 E30.84305
G1 X70.127 Y101.020 E30.91999
G1 X69.985 Y102.471 E30.98069
G1 X69.946 Y102.855 E30.99676
G1 X70.089 Y104.308 E31.05755
G1 X70.128 Y104.696 E31.07379
G1 X70.663 Y106.461 E31.15058
G1 X71.349 Y107.742 E31.21109
G1 X71.532 Y108.087 E31.22735
G1 X72.019 Y108.679 E31.25927
G1 X72.704 Y109.514 E31.30424
G1 X73.829 Y110.437 E31.36483
G1 X74.130 Y110.685 E31.38107
G1 X75.415 Y111.372 E31.44174
G1 X75.758 Y111.556 E31.45795
G1 X77.150 Y111.978 E31.51851
G1 X77.523 Y112.092 E31.53475
G1 X78.974 Y112.234 E31.59546
G1 X79.359 Y112.273 E31.61157
G1 X80.808 Y112.129 E31.67220
G1 X81.196 Y112.093 E31.68842
G1 X82.591 Y111.668 E31.74915
G1 X82.963 Y111.556 E31.76532
G1 X84.244 Y110.871 E31.82581
G1 X84.589 Y110.688 E31.84207
G1 X85.716 Y109.764 E31.90275
G1 X86.018 Y109.517 E31.91899
G1 X86.939 Y108.392 E31.97953
G1 X87.187 Y108.091 E31.99577
G1 X87.874 Y106.806 E32.05644
G1 X88.058 Y106.463 E32.07265
G1 X88.595 Y104.694 E32.14963
G1 X88.737 Y103.243 E32.21033
G1 X88.776 Y102.859 E32.22640
G1 X88.595 Y101.022 E32.30326
G1 X88.059 Y99.254 E32.38019
G1 X87.372 Y97.971 E32.44078
G1 X87.191 Y97.629 E32.45690
G1 X86.267 Y96.502 E32.51758
G1 X86.020 Y96.200 E32.53382
G1 X84.590 Y95.030 E32.61076
G1 X82.964 Y94.159 E32.68756
G1 X81.199 Y93.624 E32.76435
G1 X79.749 Y93.481 E32.82502
G1 X79.365 Y93.442 E32.84109
G1 X77.525 Y93.623 E32.91808
G0 F10500 X77.648 Y94.238
;TYPE:WALL-OUTER
G1 F900 X75.999 Y94.739 E32.98984
G1 X74.771 Y95.396 E33.04783
G1 X74.481 Y95.550 E33.06150
G1 X73.402 Y96.436 E33.11963
G1 X73.148 Y96.643 E33.13327
G1 X72.265 Y97.720 E33.19126
G1 X72.056 Y97.973 E33.20493
G1 X71.244 Y99.493 E33.27668
G1 X70.743 Y101.143 E33.34848
G1 X70.607 Y102.532 E33.40659
G1 X70.574 Y102.856 E33.42015
G1 X70.711 Y104.246 E33.47831
G1 X70.744 Y104.573 E33.49199
G1 X71.243 Y106.220 E33.56365
G1 X71.901 Y107.449 E33.62170
G1 X72.055 Y107.739 E33.63537
G1 X73.148 Y109.070 E33.70708
G1 X74.480 Y110.164 E33.77885
G1 X75.999 Y110.976 E33.85057
G1 X77.334 Y111.381 E33.90866
G1 X77.646 Y111.476 E33.92224
G1 X79.035 Y111.612 E33.98035
G1 X79.360 Y111.645 E33.99395
G1 X80.748 Y111.507 E34.05203
G1 X81.075 Y111.477 E34.06570
G1 X82.723 Y110.976 E34.13742
G1 X83.951 Y110.319 E34.19541
G1 X84.241 Y110.165 E34.20908
G1 X85.574 Y109.073 E34.28083
G1 X86.457 Y107.995 E34.33885
G1 X86.666 Y107.742 E34.35252
G1 X87.478 Y106.222 E34.42427
G1 X87.979 Y104.572 E34.49607
G1 X88.115 Y103.182 E34.55423
G1 X88.148 Y102.858 E34.56779
G1 X87.979 Y101.145 E34.63946
G1 X87.479 Y99.495 E34.71125
G1 X86.821 Y98.266 E34.76929
G1 X86.668 Y97.977 E34.78291
G1 X85.576 Y96.644 E34.85466
G1 X84.241 Y95.552 E34.92647
G1 X82.723 Y94.739 E34.99817
G1 X81.076 Y94.239 E35.06984
G1 X79.688 Y94.103 E35.12791
G1 X79.364 Y94.070 E35.14147
G1 X77.648 Y94.238 E35.21326
G0 F10500 X77.529 Y93.843
G0 X76.988 Y87.801
G0 X76.910 Y87.394
G1 F900 X79.862 Y87.124 E35.33669
G1 X82.813 Y87.394 E35.46008
G1 X85.838 Y88.264 E35.59114
G1 X88.746 Y89.771 E35.72752
G1 X91.336 Y91.876 E35.86648
G1 X93.447 Y94.474 E36.00587
G1 X94.953 Y97.381 E36.14219
G1 X95.823 Y100.405 E36.27321
G1 X96.093 Y103.359 E36.39672
G1 X96.045 Y103.905 E36.41954
G1 X95.823 Y106.311 E36.52015
G1 X94.953 Y109.334 E36.65113
G1 X93.447 Y112.242 E36.78749
G1 X91.341 Y114.833 E36.92651
G1 X88.745 Y116.943 E37.06581
G1 X85.837 Y118.451 E37.20220
G1 X82.812 Y119.320 E37.33325
G1 X79.861 Y119.591 E37.45664
G1 X76.909 Y119.320 E37.58007
G1 X73.885 Y118.451 E37.71108
G1 X70.977 Y116.943 E37.84748
G1 X68.386 Y114.838 E37.98648
G1 X66.274 Y112.240 E38.12589
G1 X65.993 Y111.701 E38.15120
G1 X64.768 Y109.335 E38.26213
G1 X64.605 Y108.772 E38.28654
G1 X63.899 Y106.311 E38.39314
G1 X63.628 Y103.357 E38.51666
G1 X63.898 Y100.403 E38.64017
G1 X64.768 Y97.380 E38.77115
G1 X66.275 Y94.473 E38.90749
G1 X68.381 Y91.881 E39.04655
G1 X70.978 Y89.771 E39.18587
G1 X73.886 Y88.264 E39.32225
G1 X76.910 Y87.394 E39.45327
G0 F10500 X77.168 Y88.217
;TYPE:SKIN
G1 F900 X82.843 Y93.892 E39.78744
G0 F10500 X81.574 Y93.507
G1 F900 X76.467 Y88.400 E40.08817
G0 F10500 X75.780 Y88.597
G1 F900 X80.518 Y93.335 E40.36716
G0 F10500 X84.644 Y94.810
G1 F900 X77.978 Y88.143 E40.75972
G0 F10500 X78.787 Y88.069
G1 F900 X95.148 Y104.429 E41.72311
G0 F10500 X95.222 Y103.620
G1 F900 X79.598 Y87.995 E42.64316
G0 F10500 X75.094 Y88.794
G1 F900 X79.537 Y93.238 E42.90481
G0 F10500 X78.701 Y93.286
G1 F900 X74.407 Y88.992 E43.15766
G0 F10500 X73.793 Y89.262
G1 F900 X77.897 Y93.365 E43.39930
G0 F10500 X77.153 Y93.505
G1 F900 X73.211 Y89.563 E43.63142
G0 F10500 X72.629 Y89.865
G1 F900 X76.475 Y93.711 E43.85789
G0 F10500 X75.796 Y93.916
G1 F900 X72.047 Y90.167 E44.07865
G0 F10500 X71.464 Y90.468
G1 F900 X75.201 Y94.205 E44.29871
G0 F10500 X74.625 Y94.514
G1 F900 X70.973 Y90.861 E44.51378
G0 F10500 X70.485 Y91.257
G1 F900 X74.050 Y94.822 E44.72371
G0 F10500 X73.558 Y95.214
G1 F900 X69.998 Y91.654 E44.93334
G0 F10500 X69.510 Y92.050
G1 F900 X73.072 Y95.612 E45.14309
G0 F10500 X72.585 Y96.009
G1 F900 X69.022 Y92.446 E45.35290
G0 F10500 X68.617 Y92.925
G1 F900 X72.182 Y96.489 E45.56279
G0 F10500 X71.783 Y96.974
G1 F900 X68.221 Y93.413 E45.77251
G0 F10500 X67.825 Y93.900
G1 F900 X71.385 Y97.460 E45.98214
G0 F10500 X71.069 Y98.029
G1 F900 X67.429 Y94.388 E46.19651
G0 F10500 X67.033 Y94.876
G1 F900 X70.761 Y98.604 E46.41603
G0 F10500 X70.456 Y99.183
G1 F900 X66.719 Y95.446 E46.63609
G0 F10500 X66.417 Y96.028
G1 F900 X70.249 Y99.860 E46.86173
G0 F10500 X70.043 Y100.538
G1 F900 X66.115 Y96.610 E47.09303
G0 F10500 X65.813 Y97.192
G1 F900 X69.883 Y101.261 E47.33267
G0 F10500 X69.804 Y102.066
G1 F900 X65.526 Y97.789 E47.58455
G0 F10500 X65.328 Y98.475
G1 F900 X69.728 Y102.874 E47.84361
G0 F10500 X69.826 Y103.856
G1 F900 X65.131 Y99.161 E48.12008
G0 F10500 X64.934 Y99.848
G1 F900 X69.950 Y104.864 E48.41544
G0 F10500 X70.334 Y106.132
G1 F900 X64.736 Y100.534 E48.74508
G0 F10500 X64.659 Y101.341
G1 F900 X71.146 Y107.828 E49.12707
G0 F10500 X74.389 Y111.071
G1 F900 X81.875 Y118.557 E49.56788
G0 F10500 X82.680 Y118.478
G1 F900 X76.086 Y111.884 E49.95617
G0 F10500 X77.356 Y112.270
G1 F900 X83.367 Y118.281 E50.31012
G0 F10500 X84.053 Y118.084
G1 F900 X78.363 Y112.393 E50.64521
G0 F10500 X79.344 Y112.490
G1 F900 X84.740 Y117.886 E50.96295
G0 F10500 X85.426 Y117.689
G1 F900 X80.151 Y112.413 E51.27360
G0 F10500 X80.956 Y112.335
G1 F900 X86.023 Y117.401 E51.57194
G0 F10500 X86.605 Y117.100
G1 F900 X81.679 Y112.174 E51.86201
G0 F10500 X82.356 Y111.966
G1 F900 X87.187 Y116.798 E52.14651
G0 F10500 X87.769 Y116.496
G1 F900 X83.036 Y111.763 E52.42521
G0 F10500 X83.613 Y111.456
G1 F900 X88.340 Y116.183 E52.70356
G0 F10500 X88.827 Y115.786
G1 F900 X84.190 Y111.149 E52.97661
G0 F10500 X84.757 Y110.832
G1 F900 X89.315 Y115.390 E53.24501
G0 F10500 X89.802 Y114.993
G1 F900 X85.243 Y110.434 E53.51347
G0 F10500 X85.729 Y110.037
G1 F900 X90.290 Y114.597 E53.78201
G0 F10500 X90.772 Y114.195
G1 F900 X86.206 Y109.630 E54.05085
G0 F10500 X86.605 Y109.144
G1 F900 X91.167 Y113.707 E54.31951
G0 F10500 X91.564 Y113.220
G1 F900 X87.003 Y108.658 E54.58812
G0 F10500 X87.394 Y108.166
G1 F900 X91.960 Y112.732 E54.85699
G0 F10500 X92.357 Y112.245
G1 F900 X87.702 Y107.590 E55.13110
G0 F10500 X88.010 Y107.014
G1 F900 X92.749 Y111.753 E55.41015
G0 F10500 X93.051 Y111.171
G1 F900 X88.299 Y106.420 E55.68994
G0 F10500 X88.505 Y105.742
G1 F900 X93.352 Y110.589 E55.97536
G0 F10500 X93.654 Y110.006
G1 F900 X88.711 Y105.064 E56.26640
G0 F10500 X88.851 Y104.320
G1 F900 X93.956 Y109.424 E56.56698
G0 F10500 X94.226 Y108.811
G1 F900 X88.929 Y103.514 E56.87889
G0 F10500 X88.978 Y102.679
G1 F900 X94.423 Y108.124 E57.19952
G0 F10500 X94.620 Y107.437
G1 F900 X88.881 Y101.698 E57.53746
G0 F10500 X88.707 Y100.641
G1 F900 X94.818 Y106.751 E57.89727
G0 F10500 X94.999 Y106.049
G1 F900 X88.324 Y99.373 E58.29036
G0 F10500 X87.410 Y97.575
G1 F900 X95.074 Y105.239 E58.74166
G0 F10500 X95.185 Y102.699
G1 F900 X80.517 Y88.031 E59.60538
G0 F10500 X81.490 Y88.120
G1 F900 X95.096 Y101.726 E60.40657
G0 F10500 X95.007 Y100.753
G1 F900 X82.463 Y88.209 E61.14522
G0 F10500 X83.650 Y88.512
G1 F900 X94.702 Y99.564 E61.79602
G0 F10500 X94.345 Y98.323
G1 F900 X84.890 Y88.868 E62.35278
G0 F10500 X86.422 Y89.516
G1 F900 X93.697 Y96.791 E62.78116
G0 F10500 X92.747 Y94.958
G1 F900 X88.257 Y90.467 E63.04559
G0 F10500 X75.802 Y94.265
G0 X72.785 Y96.279
G0 X71.629 Y97.687
G0 X64.585 Y102.150
G1 F900 X81.065 Y118.631 E64.01604
G0 F10500 X80.255 Y118.705
G1 F900 X64.511 Y102.961 E64.94312
G0 F10500 X64.521 Y103.854
G1 F900 X79.362 Y118.696 E65.81707
G0 F10500 X78.389 Y118.607
G1 F900 X64.610 Y104.827 E66.62847
G0 F10500 X64.699 Y105.800
G1 F900 X77.416 Y118.518 E67.37734
G0 F10500 X76.272 Y118.257
G1 F900 X64.959 Y106.944 E68.04351
G0 F10500 X65.315 Y108.184
G1 F900 X75.031 Y117.900 E68.61563
G0 F10500 X73.594 Y117.347
G1 F900 X65.866 Y109.619 E69.07069
G0 F10500 X66.818 Y111.455
G1 F900 X71.759 Y116.396 E69.36165
;LAYER:1
M106 S191
G1 F600 E67.86165
G1 Z0.525
G0 F10500 X101.683 Y54.250 Z0.675
;TYPE:WALL-INNER
G1 Z0.675
G1 F600 E69.36165
G1 F1140 X101.255 Y52.549 E69.39601
G1 X101.468 Y53.147 E69.40845
G1 X101.527 Y53.389 E69.41333
G1 X101.683 Y54.250 E69.43048
G0 F10500 X100.212 Y49.493
G1 F1140 X100.277 Y49.682 E69.43440
G1 X99.910 Y48.925 E69.45088
G1 X100.212 Y49.493 E69.46348
G0 F10500 X97.935 Y45.563
G0 X95.033 Y42.271
G0 X90.310 Y38.942
G0 X86.681 Y37.414
G0 X82.946 Y36.610
G1 F1140 X80.468 Y36.412 E69.51219
G1 X81.442 Y36.436 E69.53128
G1 X81.810 Y36.457 E69.53851
G1 X82.946 Y36.610 E69.56097
G0 F10500 X83.929 Y37.191
;TYPE:WALL-OUTER
G1 F1080 X79.909 Y36.869 E69.63999
G1 X79.718 Y36.844 E69.64376
G1 X79.332 Y36.833 E69.65133
G1 X77.594 Y36.977 E69.68550
G1 X77.223 Y37.012 E69.69280
G1 X74.945 Y37.441 E69.73822
G1 X74.578 Y37.522 E69.74559
G1 X72.372 Y38.232 E69.79100
G1 X72.104 Y38.324 E69.79655
G1 X70.510 Y39.026 E69.83068
G1 X70.170 Y39.183 E69.83801
G1 X68.166 Y40.355 E69.88350
G1 X67.847 Y40.554 E69.89087
G1 X66.006 Y41.965 E69.93632
G1 X65.715 Y42.203 E69.94369
G1 X64.060 Y43.829 E69.98915
G1 X63.801 Y44.100 E69.99649
G1 X62.360 Y45.927 E70.04209
G1 X61.504 Y47.202 E70.07218
G1 X60.684 Y48.733 E70.10621
G1 X60.461 Y49.140 E70.11530
G1 X59.581 Y51.289 E70.16080
G1 X59.449 Y51.640 E70.16815
G1 X58.843 Y53.879 E70.21360
G1 X58.756 Y54.245 E70.22097
G1 X58.431 Y56.549 E70.26657
G1 X58.326 Y58.750 E70.30974
G1 X58.443 Y60.487 E70.34385
G1 X58.469 Y60.951 E70.35296
G1 X58.866 Y63.238 E70.39844
G1 X58.941 Y63.606 E70.40580
G1 X59.616 Y65.826 E70.45127
G1 X59.736 Y66.182 E70.45863
G1 X60.760 Y68.470 E70.50775
G1 X60.897 Y68.720 E70.51333
G1 X62.425 Y71.174 E70.56997
G1 X62.584 Y71.413 E70.57560
G1 X63.692 Y72.757 E70.60973
G1 X63.931 Y73.043 E70.61703
G1 X65.584 Y74.671 E70.66249
G1 X65.860 Y74.926 E70.66986
G1 X67.706 Y76.337 E70.71538
G1 X68.165 Y76.645 E70.72621
G1 X69.654 Y77.558 E70.76044
G1 X71.226 Y78.308 E70.79457
G1 X71.564 Y78.466 E70.80188
G1 X73.749 Y79.244 E70.84732
G1 X74.107 Y79.359 E70.85469
G1 X76.373 Y79.860 E70.90017
G1 X76.741 Y79.929 E70.90750
G1 X79.050 Y80.145 E70.95294
G1 X79.424 Y80.168 E70.96028
G1 X81.742 Y80.098 E71.00572
G1 X82.116 Y80.074 E71.01307
G1 X84.416 Y79.714 E71.05868
G1 X86.553 Y79.172 E71.10188
G1 X88.183 Y78.554 E71.13604
G1 X88.446 Y78.466 E71.14147
G1 X90.356 Y77.558 E71.18291
G1 X91.844 Y76.646 E71.21711
G1 X93.640 Y75.361 E71.26038
G1 X94.922 Y74.199 E71.29428
G1 X95.142 Y74.015 E71.29990
G1 X96.527 Y72.540 E71.33955
G1 X97.247 Y71.632 E71.36226
G1 X97.427 Y71.413 E71.36781
G1 X98.391 Y69.961 E71.40196
G1 X98.594 Y69.648 E71.40927
G1 X99.668 Y67.594 E71.45469
G1 X99.832 Y67.256 E71.46205
G1 X100.644 Y65.083 E71.50750
G1 X100.766 Y64.727 E71.51488
G1 X101.303 Y62.464 E71.56045
G1 X101.614 Y60.282 E71.60364
G1 X101.657 Y58.538 E71.63782
G1 X101.675 Y58.268 E71.64312
G1 X101.673 Y58.071 E71.64698
G1 X101.494 Y55.763 E71.69234
G1 X101.453 Y55.384 E71.69981
G1 X100.465 Y51.458 E71.77914
G1 X100.317 Y50.912 E71.79022
G1 X98.805 Y47.793 E71.85814
G1 X98.733 Y47.619 E71.86183
G1 X98.555 Y47.279 E71.86935
G1 X97.572 Y45.828 E71.90369
G1 X96.208 Y44.099 E71.94684
G1 X94.981 Y42.868 E71.98090
G1 X94.724 Y42.598 E71.98820
G1 X93.185 Y41.288 E72.02780
G1 X92.084 Y40.499 E72.05434
G1 X90.588 Y39.603 E72.08851
G1 X90.105 Y39.341 E72.09928
G1 X88.535 Y38.571 E72.13354
G1 X86.901 Y37.970 E72.16766
G1 X86.550 Y37.845 E72.17496
G1 X84.301 Y37.273 E72.22043
G1 X83.929 Y37.191 E72.22789
G0 F10500 X84.219 Y36.278
G1 F1080 X86.541 Y36.883 E72.27491
G1 X86.860 Y36.946 E72.28128
G1 X86.987 Y36.983 E72.28387
G1 X88.668 Y37.623 E72.31912
G1 X90.662 Y38.548 E72.36219
G1 X91.693 Y39.144 E72.38552
G1 X91.896 Y39.255 E72.39006
G1 X93.377 Y40.276 E72.42530
G1 X93.690 Y40.504 E72.43289
G1 X95.086 Y41.641 E72.46817
G1 X96.358 Y42.908 E72.50335
G1 X96.532 Y43.069 E72.50799
G1 X97.905 Y44.669 E72.54930
G1 X98.929 Y46.134 E72.58433
G1 X99.107 Y46.395 E72.59052
G1 X100.532 Y49.025 E72.64913
G1 X100.673 Y49.296 E72.65511
G1 X101.836 Y52.702 E72.72564
G1 X101.947 Y52.999 E72.73185
G1 X102.016 Y53.285 E72.73761
G1 X102.445 Y55.647 E72.78465
G1 X102.590 Y57.152 E72.81428
G1 X102.608 Y58.945 E72.84941
G1 X102.609 Y59.260 E72.85559
G1 X102.396 Y61.640 E72.90241
G1 X102.357 Y61.960 E72.90872
G1 X102.023 Y63.698 E72.94340
G1 X101.509 Y65.433 E72.97886
G1 X101.380 Y65.898 E72.98831
G1 X100.739 Y67.555 E73.02313
G1 X99.923 Y69.163 E73.05846
G1 X99.726 Y69.577 E73.06744
G1 X98.432 Y71.602 E73.11453
G1 X98.299 Y71.801 E73.11922
G1 X97.048 Y73.388 E73.15882
G1 X94.806 Y75.593 E73.22043
G1 X93.210 Y76.865 E73.26042
G1 X93.030 Y77.007 E73.26491
G1 X89.588 Y79.000 E73.34285
G1 X87.919 Y79.671 E73.37809
G1 X87.704 Y79.769 E73.38272
G1 X85.258 Y80.493 E73.43271
G1 X83.200 Y80.899 E73.47381
G1 X81.408 Y81.050 E73.50905
G1 X81.092 Y81.094 E73.51530
G1 X79.303 Y81.103 E73.55035
G1 X78.991 Y81.108 E73.55647
G1 X77.208 Y80.939 E73.59156
G1 X76.886 Y80.904 E73.59791
G1 X74.390 Y80.412 E73.64776
G1 X72.378 Y79.806 E73.68893
G1 X70.715 Y79.115 E73.72422
G1 X70.364 Y78.958 E73.73175
G1 X67.735 Y77.503 E73.79063
G1 X67.547 Y77.392 E73.79490
G1 X66.095 Y76.326 E73.83020
G1 X65.790 Y76.090 E73.83776
G1 X63.586 Y74.057 E73.89651
G1 X63.416 Y73.891 E73.90116
G1 X62.119 Y72.346 E73.94069
G1 X60.936 Y70.684 E73.98066
G1 X60.048 Y69.128 E74.01577
G1 X59.859 Y68.775 E74.02361
G1 X59.103 Y67.163 E74.05850
G1 X58.571 Y65.743 E74.08821
G1 X57.933 Y63.432 E74.13519
G1 X57.871 Y63.197 E74.13995
G1 X57.664 Y62.047 E74.16285
G1 X57.454 Y60.087 E74.20147
G1 X57.435 Y59.935 E74.20447
G1 X57.389 Y57.908 E74.24420
G1 X57.533 Y56.117 E74.27941
G1 X57.558 Y55.740 E74.28681
G1 X57.987 Y53.376 E74.33389
G1 X58.053 Y53.065 E74.34012
G1 X58.758 Y50.783 E74.38692
G1 X58.860 Y50.483 E74.39313
G1 X60.108 Y47.768 E74.45168
G1 X60.245 Y47.484 E74.45786
G1 X61.193 Y45.967 E74.49291
G1 X61.361 Y45.703 E74.49904
G1 X63.222 Y43.355 E74.55774
G1 X63.367 Y43.176 E74.56226
G1 X64.651 Y41.923 E74.59741
G1 X64.931 Y41.645 E74.60514
G1 X66.799 Y40.156 E74.65195
G1 X67.045 Y39.972 E74.65797
G1 X69.092 Y38.706 E74.70513
G1 X69.281 Y38.593 E74.70945
G1 X70.904 Y37.802 E74.74482
G1 X71.261 Y37.642 E74.75249
G1 X73.501 Y36.837 E74.79913
G1 X74.897 Y36.465 E74.82744
G1 X76.661 Y36.155 E74.86253
G1 X77.052 Y36.083 E74.87032
G1 X79.433 Y35.904 E74.91711
G1 X79.672 Y35.891 E74.92180
G1 X81.456 Y35.936 E74.95676
G1 X81.854 Y35.958 E74.96457
G1 X84.219 Y36.278 E75.01134
G0 F10500 X84.054 Y36.507
;TYPE:SKIN
G1 F1380 X83.402 Y36.804 E75.02271
G1 X83.431 Y36.423 E75.03020
G0 F10500 X84.259 Y37.009
G1 F1380 X84.725 Y36.895 E75.04037
G1 X85.288 Y37.040 E75.05037
G1 X85.850 Y37.185 E75.06031
G1 X86.413 Y37.329 E75.07015
G1 X87.139 Y37.310 E75.08028
G1 X87.302 Y37.854 E75.09005
G1 X88.164 Y37.699 E75.09966
G1 X88.338 Y38.233 E75.10910
G1 X89.154 Y38.124 E75.11781
G1 X89.311 Y38.673 E75.12667
G1 X90.120 Y38.572 E75.13578
G1 X90.255 Y39.144 E75.14518
G1 X91.048 Y39.058 E75.15446
G1 X91.159 Y39.655 E75.16372
G1 X91.933 Y39.587 E75.17319
G1 X92.042 Y40.185 E75.18207
G1 X92.772 Y40.163 E75.19037
G1 X92.879 Y40.763 E75.19887
G1 X93.594 Y40.754 E75.20748
G1 X93.676 Y41.380 E75.21596
G1 X94.378 Y41.385 E75.22468
G1 X94.440 Y42.030 E75.23365
G1 X95.136 Y42.042 E75.24270
G1 X95.177 Y42.707 E75.25127
G1 X95.844 Y42.748 E75.25996
G1 X95.881 Y43.417 E75.26868
G1 X96.540 Y43.465 E75.27751
G1 X96.565 Y44.148 E75.28565
G1 X97.194 Y44.226 E75.29422
G1 X97.189 Y44.938 E75.30318
G1 X97.830 Y45.004 E75.31255
G1 X97.804 Y45.737 E75.32143
G1 X98.414 Y45.834 E75.33022
G1 X98.380 Y46.576 E75.33915
G1 X98.975 Y46.687 E75.34817
G1 X98.918 Y47.452 E75.35646
G1 X99.475 Y47.602 E75.36526
G1 X99.379 Y48.405 E75.37454
G1 X99.848 Y48.290 E75.38400
G0 F10500 X100.375 Y49.884
G1 F1380 X100.303 Y50.310 E75.38918
G1 X100.819 Y50.501 E75.39779
G1 X100.852 Y51.175 E75.40591
G1 X101.015 Y51.719 E75.41496
G1 X100.904 Y52.183 E75.42431
G0 F10500 X101.002 Y52.158
G0 X102.003 Y54.620
G1 F1380 X101.863 Y55.113 E75.43506
G1 X101.968 Y55.715 E75.44569
G1 X102.026 Y56.364 E75.45751
G1 X102.083 Y57.014 E75.46963
G1 X102.114 Y57.690 E75.48204
G1 X102.137 Y58.375 E75.49370
G1 X102.126 Y59.093 E75.50631
G1 X102.084 Y59.842 E75.51960
G1 X102.032 Y60.601 E75.53200
G1 X101.939 Y61.401 E75.54573
G1 X101.814 Y62.233 E75.56076
G1 X101.647 Y63.108 E75.57679
G1 X101.416 Y64.046 E75.59424
G1 X100.999 Y64.816 E75.61140
G0 F10500 X101.313 Y65.210
G1 F1380 X100.594 Y65.929 E75.63132
G0 F10500 X100.970 Y66.260
G1 F1380 X100.172 Y67.057 E75.65342
G0 F10500 X100.525 Y67.412
G1 F1380 X99.516 Y68.421 E75.68138
G0 F10500 X99.806 Y68.838
G1 F1380 X98.693 Y69.951 E75.71222
G0 F10500 X98.816 Y70.536
G1 F1380 X96.975 Y72.376 E75.76322
G0 F10500 X96.947 Y73.111
G1 F1380 X95.544 Y74.514 E75.80210
G0 F10500 X93.873 Y75.623
G0 X93.799 Y75.552
G1 F1380 X92.089 Y77.262 E75.84949
G0 F10500 X91.488 Y77.156
G1 F1380 X90.407 Y78.237 E75.87944
G0 F10500 X89.874 Y78.063
G1 F1380 X88.950 Y78.987 E75.90505
G0 F10500 X88.529 Y78.701
G1 F1380 X87.766 Y79.464 E75.92619
G0 F10500 X87.409 Y79.114
G1 F1380 X86.528 Y79.641 E75.94510
G1 X85.552 Y79.909 E75.96191
G1 X84.607 Y80.147 E75.97868
G1 X83.747 Y80.300 E75.99371
G1 X82.897 Y80.443 E76.00945
G1 X82.102 Y80.531 E76.02333
G1 X81.348 Y80.578 E76.03598
G1 X80.603 Y80.616 E76.04936
G1 X79.883 Y80.629 E76.06226
G1 X79.180 Y80.625 E76.07466
G1 X78.520 Y80.578 E76.08648
G1 X77.873 Y80.517 E76.09830
G1 X77.227 Y80.456 E76.11007
G1 X76.602 Y80.374 E76.12119
G1 X76.014 Y80.255 E76.13130
G1 X75.429 Y80.132 E76.14156
G1 X74.844 Y80.010 E76.15215
G1 X74.263 Y79.885 E76.16284
G1 X73.720 Y79.720 E76.17253
G1 X73.188 Y79.546 E76.18227
G1 X72.469 Y79.558 E76.19261
G1 X72.321 Y78.999 E76.20292
G1 X71.459 Y79.153 E76.21264
G1 X71.296 Y78.609 E76.22176
G1 X70.477 Y78.721 E76.23119
G1 X70.334 Y78.157 E76.24040
G1 X69.558 Y78.226 E76.24892
G1 X69.393 Y77.684 E76.25682
G1 X68.648 Y77.722 E76.26495
G1 X68.512 Y77.150 E76.27354
G1 X67.748 Y77.207 E76.28261
G1 X67.653 Y76.595 E76.29171
G1 X66.920 Y76.621 E76.30059
G1 X66.844 Y75.990 E76.30968
G1 X66.110 Y76.017 E76.31898
G1 X66.042 Y75.377 E76.32814
G1 X65.360 Y75.353 E76.33640
G1 X65.283 Y74.723 E76.34428
G1 X64.625 Y74.674 E76.35246
G1 X64.570 Y74.021 E76.36098
G1 X63.890 Y73.994 E76.36981
G1 X63.861 Y73.316 E76.37890
G1 X63.213 Y73.258 E76.38755
G1 X63.206 Y72.557 E76.39623
G1 X62.567 Y72.489 E76.40507
G1 X62.566 Y71.783 E76.41392
G1 X61.957 Y71.685 E76.42231
G1 X61.989 Y70.946 E76.43101
G1 X61.369 Y70.858 E76.44033
G1 X61.446 Y70.074 E76.45030
G1 X60.827 Y69.987 E76.46013
G1 X60.903 Y69.203 E76.46957
G1 X60.315 Y69.085 E76.47860
G1 X60.404 Y68.288 E76.48762
G1 X59.840 Y68.145 E76.49708
G1 X59.967 Y67.311 E76.50676
G1 X59.392 Y67.179 E76.51664
G1 X59.537 Y66.327 E76.52646
G1 X58.995 Y66.161 E76.53597
G1 X58.997 Y65.453 E76.54609
G1 X58.838 Y64.904 E76.55644
G1 X58.679 Y64.356 E76.56644
G1 X58.520 Y63.808 E76.57612
G1 X58.374 Y63.247 E76.58614
G1 X58.267 Y62.647 E76.59741
G1 X58.162 Y62.044 E76.60883
G1 X58.076 Y61.424 E76.62026
G1 X57.992 Y60.801 E76.63078
G1 X57.936 Y60.149 E76.64199
G1 X57.901 Y59.477 E76.65393
G1 X57.871 Y58.800 E76.66540
G1 X57.870 Y58.094 E76.67769
G1 X57.914 Y57.343 E76.69140
G1 X57.962 Y56.588 E76.70459
G1 X58.044 Y55.799 E76.71867
G1 X58.180 Y54.956 E76.73400
G1 X58.316 Y54.113 E76.74819
G1 X58.521 Y53.200 E76.76443
G1 X58.810 Y52.204 E76.78296
G1 X59.275 Y51.386 E76.80140
G0 F10500 X58.951 Y51.003
G1 F1380 X59.755 Y50.199 E76.82368
G0 F10500 X59.448 Y49.799
G1 F1380 X60.255 Y48.992 E76.84604
G0 F10500 X60.051 Y48.489
G1 F1380 X61.078 Y47.462 E76.87450
G0 F10500 X60.855 Y46.978
G1 F1380 X62.539 Y45.294 E76.92117
G0 F10500 X62.669 Y44.457
G1 F1380 X66.071 Y41.055 E77.01544
G0 F10500 X66.765 Y41.068
G1 F1380 X68.415 Y39.418 E77.06116
G0 F10500 X68.911 Y39.629
G1 F1380 X70.041 Y38.499 E77.09247
G0 F10500 X70.482 Y38.765
G1 F1380 X71.385 Y37.862 E77.11750
G0 F10500 X71.747 Y38.207
G1 F1380 X72.489 Y37.465 E77.13806
G0 F10500 X72.845 Y37.816
G1 F1380 X73.591 Y37.070 E77.15873
G0 F10500 X73.888 Y37.480
G1 F1380 X74.715 Y37.007 E77.17717
G1 X75.601 Y36.827 E77.19326
G1 X76.467 Y36.669 E77.20902
G1 X77.310 Y36.532 E77.22419
G1 X78.079 Y36.471 E77.23734
G1 X78.847 Y36.410 E77.25026
G1 X79.592 Y36.372 E77.26300
G1 X80.166 Y36.152 E77.27505
G1 F600 E75.77505
G1 Z0.775
G0 F10500 X79.862 Y87.941
;TYPE:WALL-INNER
G1 Z0.675
G1 F600 E77.27505
G1 F1140 X82.663 Y88.197 E77.33016
G1 X85.536 Y89.024 E77.38874
G1 X86.508 Y89.526 E77.41018
G1 X88.297 Y90.456 E77.44968
G1 X89.166 Y91.160 E77.47160
G1 X90.761 Y92.457 E77.51188
G1 X92.765 Y94.925 E77.57417
G1 X93.269 Y95.894 E77.59558
G1 X94.195 Y97.685 E77.63508
G1 X94.487 Y98.694 E77.65566
G1 X95.019 Y100.554 E77.69357
G1 X95.277 Y103.357 E77.74873
G1 X95.187 Y104.346 E77.76818
G1 X95.019 Y106.161 E77.80390
G1 X94.193 Y109.033 E77.86246
G1 X93.690 Y110.006 E77.88392
G1 X92.763 Y111.792 E77.92335
G1 X92.058 Y112.662 E77.94529
G1 X90.761 Y114.257 E77.98557
G1 X88.294 Y116.261 E78.04785
G1 X87.323 Y116.765 E78.06929
G1 X85.534 Y117.691 E78.10876
G1 X84.523 Y117.983 E78.12938
G1 X82.663 Y118.516 E78.16729
G1 X81.676 Y118.608 E78.18671
G1 X79.862 Y118.774 E78.22240
G1 X78.873 Y118.684 E78.24186
G1 X77.059 Y118.516 E78.27756
G1 X74.189 Y117.692 E78.33607
G1 X71.427 Y116.259 E78.39704
G1 X70.556 Y115.553 E78.41901
G1 X68.961 Y114.256 E78.45929
G1 X68.254 Y113.388 E78.48122
G1 X66.957 Y111.790 E78.52155
G1 X66.452 Y110.819 E78.54300
G1 X65.528 Y109.032 E78.58242
G1 X65.236 Y108.020 E78.60305
G1 X64.702 Y106.161 E78.64095
G1 X64.445 Y103.357 E78.69613
G1 X64.613 Y101.542 E78.73184
G1 X64.702 Y100.553 E78.75130
G1 X65.528 Y97.681 E78.80985
G1 X66.030 Y96.710 E78.83127
G1 X66.960 Y94.922 E78.87076
G1 X67.664 Y94.053 E78.89268
G1 X68.962 Y92.457 E78.93299
G1 X71.429 Y90.453 E78.99526
G1 X72.399 Y89.949 E79.01668
G1 X74.187 Y89.024 E79.05613
G1 X77.061 Y88.197 E79.11473
G1 X79.862 Y87.941 E79.16984
G0 F10500 X79.979 Y93.717
G1 F1140 X79.364 Y93.654 E79.18195
G1 X77.567 Y93.831 E79.21734
G1 X76.431 Y94.176 E79.24060
G1 X75.840 Y94.355 E79.25270
G1 X74.795 Y94.914 E79.27592
G1 X74.250 Y95.205 E79.28803
G1 X72.854 Y96.350 E79.32340
G1 X71.710 Y97.744 E79.35874
G1 X71.152 Y98.789 E79.38195
G1 X70.860 Y99.334 E79.39407
G1 X70.515 Y100.473 E79.41739
G1 X70.336 Y101.062 E79.42945
G1 X70.221 Y102.240 E79.45264
G1 X70.158 Y102.856 E79.46477
G1 X70.275 Y104.039 E79.48807
G1 X70.336 Y104.653 E79.50016
G1 X70.860 Y106.380 E79.53552
G1 X71.711 Y107.970 E79.57086
G1 X72.855 Y109.364 E79.60619
G1 X74.249 Y110.509 E79.64154
G1 X75.295 Y111.067 E79.66477
G1 X75.839 Y111.359 E79.67686
G1 X77.566 Y111.883 E79.71223
G1 X78.745 Y111.998 E79.73544
G1 X79.359 Y112.060 E79.74753
G1 X81.156 Y111.883 E79.78291
G1 X82.883 Y111.359 E79.81828
G1 X84.473 Y110.510 E79.85359
G1 X85.868 Y109.366 E79.88894
G1 X86.619 Y108.449 E79.91217
G1 X87.012 Y107.972 E79.92428
G1 X87.570 Y106.926 E79.94751
G1 X87.862 Y106.381 E79.95962
G1 X88.207 Y105.242 E79.98294
G1 X88.386 Y104.653 E79.99500
G1 X88.501 Y103.474 E80.01822
G1 X88.564 Y102.858 E80.03035
G1 X88.387 Y101.063 E80.06569
G1 X87.862 Y99.335 E80.10108
G1 X87.013 Y97.745 E80.13640
G1 X86.261 Y96.829 E80.15962
G1 X85.870 Y96.350 E80.17173
G1 X84.765 Y95.446 E80.19971
G1 X84.471 Y95.206 E80.20715
G1 X83.427 Y94.647 E80.23035
G1 X82.883 Y94.355 E80.24245
G1 X81.156 Y93.832 E80.27780
G1 X79.979 Y93.717 E80.30098
G0 F10500 X79.928 Y94.214
;TYPE:WALL-OUTER
G1 F1080 X79.363 Y94.157 E80.31210
G1 X77.665 Y94.324 E80.34554
G1 X76.032 Y94.819 E80.37897
G1 X74.528 Y95.623 E80.41239
G1 X73.209 Y96.705 E80.44582
G1 X72.128 Y98.023 E80.47922
G1 X71.324 Y99.527 E80.51263
G1 X70.829 Y101.160 E80.54607
G1 X70.718 Y102.291 E80.56834
G1 X70.661 Y102.857 E80.57948
G1 X70.829 Y104.555 E80.61292
G1 X71.324 Y106.187 E80.64633
G1 X72.128 Y107.691 E80.67975
G1 X73.210 Y109.009 E80.71316
G1 X74.528 Y110.091 E80.74657
G1 X76.032 Y110.895 E80.77999
G1 X77.664 Y111.390 E80.81341
G1 X79.360 Y111.557 E80.84680
G1 X81.058 Y111.390 E80.88023
G1 X82.690 Y110.895 E80.91365
G1 X84.194 Y110.092 E80.94706
G1 X85.513 Y109.011 E80.98047
G1 X86.594 Y107.692 E81.01389
G1 X87.398 Y106.188 E81.04730
G1 X87.893 Y104.555 E81.08074
G1 X88.004 Y103.423 E81.10303
G1 X88.061 Y102.857 E81.11417
G1 X87.894 Y101.161 E81.14757
G1 X87.398 Y99.528 E81.18101
G1 X86.595 Y98.024 E81.21441
G1 X85.515 Y96.705 E81.24782
G1 X84.192 Y95.624 E81.28129
G1 X82.690 Y94.819 E81.31468
G1 X81.059 Y94.325 E81.34808
G1 X79.928 Y94.214 E81.37034
G0 F10500 X79.953 Y93.866
G0 X79.862 Y87.789
G0 X79.862 Y87.439
G1 F1080 X82.757 Y87.704 E81.42731
G1 X85.718 Y88.556 E81.48768
G1 X88.573 Y90.035 E81.55068
G1 X91.114 Y92.099 E81.61483
G1 X93.184 Y94.649 E81.67918
G1 X94.661 Y97.499 E81.74208
G1 X95.513 Y100.460 E81.80245
G1 X95.779 Y103.357 E81.85946
G1 X95.513 Y106.255 E81.91648
G1 X94.661 Y109.215 E81.97683
G1 X93.183 Y112.069 E82.03981
G1 X91.119 Y114.610 E82.10396
G1 X88.570 Y116.680 E82.16830
G1 X85.718 Y118.159 E82.23125
G1 X82.757 Y119.010 E82.29161
G1 X79.862 Y119.276 E82.34858
G1 X76.965 Y119.010 E82.40558
G1 X74.004 Y118.159 E82.46595
G1 X71.150 Y116.679 E82.52894
G1 X68.609 Y114.615 E82.59309
G1 X66.538 Y112.066 E82.65744
G1 X65.060 Y109.215 E82.72037
G1 X64.209 Y106.255 E82.78071
G1 X63.943 Y103.357 E82.83774
G1 X64.208 Y100.459 E82.89476
G1 X65.060 Y97.499 E82.95511
G1 X66.539 Y94.646 E83.01808
G1 X68.604 Y92.104 E83.08225
G1 X71.153 Y90.034 E83.14659
G1 X74.004 Y88.556 E83.20952
G1 X76.965 Y87.704 E83.26989
G1 X79.862 Y87.439 E83.32689
G0 F10500 X79.817 Y88.120
;TYPE:SKIN
G1 F1380 X64.625 Y103.312 E83.74787
G0 F10500 X64.677 Y103.967
G1 F1380 X80.472 Y88.171 E84.18557
G0 F10500 X81.120 Y88.231
G1 F1380 X74.457 Y94.894 E84.37021
G0 F10500 X75.907 Y94.151
G1 F1380 X81.769 Y88.290 E84.53263
G0 F10500 X82.416 Y88.349
G1 F1380 X76.922 Y93.843 E84.68488
G0 F10500 X77.845 Y93.628
G1 F1380 X82.998 Y88.474 E84.82768
G0 F10500 X83.548 Y88.632
G1 F1380 X78.629 Y93.550 E84.96398
G0 F10500 X79.405 Y93.482
G1 F1380 X84.096 Y88.790 E85.09398
G0 F10500 X84.645 Y88.949
G1 F1380 X80.048 Y93.545 E85.22135
G0 F10500 X80.691 Y93.610
G1 F1380 X85.195 Y89.106 E85.34616
G0 F10500 X85.702 Y89.306
G1 F1380 X81.312 Y93.696 E85.46781
G0 F10500 X81.855 Y93.860
G1 F1380 X86.168 Y89.548 E85.58731
G0 F10500 X86.634 Y89.789
G1 F1380 X82.397 Y94.025 E85.70471
G0 F10500 X82.940 Y94.189
G1 F1380 X87.099 Y90.030 E85.81996
G0 F10500 X87.565 Y90.272
G1 F1380 X83.402 Y94.434 E85.93530
G0 F10500 X83.862 Y94.681
G1 F1380 X88.030 Y90.513 E86.05080
G0 F10500 X88.448 Y90.803
G1 F1380 X84.323 Y94.928 E86.16511
G0 F10500 X84.750 Y95.208
G1 F1380 X88.838 Y91.119 E86.27840
G0 F10500 X89.229 Y91.436
G1 F1380 X85.139 Y95.526 E86.39174
G0 F10500 X85.528 Y95.844
G1 F1380 X89.619 Y91.753 E86.50510
G0 F10500 X90.009 Y92.070
G1 F1380 X85.917 Y96.162 E86.61849
G0 F10500 X86.250 Y96.537
G1 F1380 X90.399 Y92.387 E86.73348
G0 F10500 X90.759 Y92.734
G1 F1380 X86.568 Y96.925 E86.84961
G0 F10500 X86.887 Y97.314
G1 F1380 X91.076 Y93.124 E86.96571
G0 F10500 X91.393 Y93.514
G1 F1380 X87.195 Y97.712 E87.08203
G0 F10500 X87.441 Y98.173
G1 F1380 X91.710 Y93.905 E87.20032
G0 F10500 X92.027 Y94.295
G1 F1380 X87.687 Y98.635 E87.32058
G0 F10500 X87.933 Y99.096
G1 F1380 X92.343 Y94.685 E87.44280
G0 F10500 X92.650 Y95.086
G1 F1380 X88.128 Y99.608 E87.56811
G0 F10500 X88.292 Y100.151
G1 F1380 X92.891 Y95.552 E87.69555
G0 F10500 X93.133 Y96.017
G1 F1380 X88.457 Y100.693 E87.82512
G0 F10500 X88.583 Y101.274
G1 F1380 X93.374 Y96.483 E87.95788
G0 F10500 X93.616 Y96.948
G1 F1380 X88.647 Y101.918 E88.09559
G0 F10500 X88.710 Y102.562
G1 F1380 X93.857 Y97.414 E88.23823
G0 F10500 X94.075 Y97.903
G1 F1380 X88.697 Y103.282 E88.38727
G0 F10500 X88.619 Y104.067
G1 F1380 X94.233 Y98.453 E88.54284
G0 F10500 X94.390 Y99.002
G1 F1380 X88.492 Y104.900 E88.70628
G0 F10500 X88.185 Y105.915
G1 F1380 X94.548 Y99.552 E88.88260
G0 F10500 X94.706 Y100.101
G1 F1380 X87.639 Y107.168 E89.07843
G0 F10500 X85.831 Y109.329
G0 X83.673 Y111.134
G1 F1380 X76.604 Y118.203 E89.27431
G0 F10500 X76.054 Y118.045
G1 F1380 X82.420 Y111.680 E89.45071
G0 F10500 X81.405 Y111.988
G1 F1380 X75.505 Y117.888 E89.61420
G0 F10500 X74.956 Y117.730
G1 F1380 X80.571 Y112.114 E89.76981
G0 F10500 X81.291 Y118.465
G1 F1380 X94.969 Y104.788 E90.14882
G0 F10500 X95.040 Y104.009
G1 F1380 X80.512 Y118.537 E90.55140
G0 F10500 X79.755 Y118.588
G1 F1380 X95.091 Y103.252 E90.97637
G0 F10500 X95.031 Y102.604
G1 F1380 X79.108 Y118.528 E91.41762
G0 F10500 X78.460 Y118.468
G1 F1380 X94.971 Y101.957 E91.87515
G0 F10500 X94.912 Y101.310
G1 F1380 X77.812 Y118.409 E92.34898
G0 F10500 X77.165 Y118.349
G1 F1380 X94.852 Y100.662 E92.83910
G0 F10500 X94.897 Y105.567
G1 F1380 X82.070 Y118.394 E93.19454
G0 F10500 X82.908 Y118.262
G1 F1380 X94.766 Y106.405 E93.52312
G0 F10500 X94.480 Y107.398
G1 F1380 X83.901 Y117.977 E93.81627
G0 F10500 X84.893 Y117.692
G1 F1380 X94.195 Y108.390 E94.07403
G0 F10500 X93.710 Y109.583
G1 F1380 X86.087 Y117.205 E94.28526
G0 F10500 X87.554 Y116.445
G1 F1380 X92.949 Y111.051 E94.43474
G0 F10500 X90.901 Y113.806
G1 F1380 X90.315 Y114.392 E94.45098
G0 F10500 X79.787 Y112.191
G1 F1380 X74.406 Y117.572 E94.60009
G0 F10500 X73.918 Y117.354
G1 F1380 X79.067 Y112.205 E94.74277
G0 F10500 X78.423 Y112.141
G1 F1380 X73.452 Y117.112 E94.88052
G0 F10500 X72.986 Y116.871
G1 F1380 X77.779 Y112.078 E95.01334
G0 F10500 X77.198 Y111.952
G1 F1380 X72.521 Y116.629 E95.14294
G0 F10500 X72.055 Y116.388
G1 F1380 X76.656 Y111.787 E95.27044
G0 F10500 X76.113 Y111.623
G1 F1380 X71.590 Y116.146 E95.39577
G0 F10500 X71.188 Y115.841
G1 F1380 X75.601 Y111.428 E95.51806
G0 F10500 X75.139 Y111.182
G1 F1380 X70.799 Y115.523 E95.63834
G0 F10500 X70.408 Y115.206
G1 F1380 X74.678 Y110.936 E95.75666
G0 F10500 X74.217 Y110.690
G1 F1380 X70.018 Y114.890 E95.87303
G0 F10500 X69.628 Y114.573
G1 F1380 X73.819 Y110.382 E95.98917
G0 F10500 X73.431 Y110.062
G1 F1380 X69.237 Y114.256 E96.10538
G0 F10500 X68.893 Y113.893
G1 F1380 X73.043 Y109.743 E96.22038
G0 F10500 X72.667 Y109.412
G1 F1380 X68.576 Y113.503 E96.33375
G0 F10500 X68.259 Y113.113
G1 F1380 X72.349 Y109.023 E96.44708
G0 F10500 X72.030 Y108.635
G1 F1380 X67.943 Y112.722 E96.56034
G0 F10500 X67.625 Y112.333
G1 F1380 X71.711 Y108.246 E96.67358
G0 F10500 X71.431 Y107.820
G1 F1380 X67.308 Y111.942 E96.78781
G0 F10500 X67.018 Y111.525
G1 F1380 X71.185 Y107.359 E96.90327
G0 F10500 X70.939 Y106.898
G1 F1380 X66.777 Y111.060 E97.01860
G0 F10500 X66.535 Y110.594
G1 F1380 X70.694 Y106.435 E97.13385
G0 F10500 X70.530 Y105.892
G1 F1380 X66.294 Y110.129 E97.25124
G0 F10500 X66.052 Y109.663
G1 F1380 X70.365 Y105.350 E97.37076
G0 F10500 X70.200 Y104.808
G1 F1380 X65.811 Y109.197 E97.49238
G0 F10500 X65.611 Y108.690
G1 F1380 X70.114 Y104.187 E97.61716
G0 F10500 X70.050 Y103.543
G1 F1380 X65.454 Y108.140 E97.74453
G0 F10500 X65.296 Y107.591
G1 F1380 X69.987 Y102.900 E97.87452
G0 F10500 X70.055 Y102.125
G1 F1380 X65.137 Y107.042 E98.01079
G0 F10500 X64.980 Y106.493
G1 F1380 X70.132 Y101.340 E98.15357
G0 F10500 X70.348 Y100.417
G1 F1380 X64.855 Y105.911 E98.30580
G0 F10500 X64.795 Y105.263
G1 F1380 X70.656 Y99.402 E98.46821
G0 F10500 X71.397 Y97.954
G1 F1380 X64.737 Y104.615 E98.65278
G0 F10500 X64.696 Y102.534
G1 F1380 X79.038 Y88.191 E99.05021
G0 F10500 X78.261 Y88.262
G1 F1380 X64.768 Y101.755 E99.42411
G0 F10500 X64.839 Y100.976
G1 F1380 X77.483 Y88.333 E99.77447
G0 F10500 X76.598 Y88.511
G1 F1380 X65.016 Y100.093 E100.09542
G0 F10500 X65.302 Y99.100
G1 F1380 X75.605 Y88.796 E100.38093
G0 F10500 X74.613 Y89.082
G1 F1380 X65.587 Y98.107 E100.63103
G0 F10500 X66.176 Y96.812
G1 F1380 X73.316 Y89.671 E100.82890
G0 F10500 X71.847 Y90.433
G1 F1380 X66.938 Y95.342 E100.96493
;LAYER:2
G1 F600 E99.46493
G1 Z0.775
G0 F10500 X101.682 Y54.230 Z0.925
;TYPE:WALL-INNER
G1 Z0.925
G1 F600 E100.96493
G1 F1440 X101.271 Y52.597 E100.99793
G1 X101.447 Y53.073 E101.00787
G1 X101.682 Y54.230 E101.03100
G0 F10500 X100.213 Y49.495
G1 F1440 X100.277 Y49.682 E101.03488
G1 X99.886 Y48.876 E101.05243
G1 X100.213 Y49.495 E101.06615
G0 F10500 X97.612 Y45.123
G0 X93.775 Y41.200
G0 X88.712 Y38.158
G0 X83.955 Y36.738
G0 X82.824 Y36.596
G1 F1440 X80.548 Y36.413 E101.11089
G1 X81.338 Y36.433 E101.12637
G1 X81.654 Y36.442 E101.13257
G1 X82.824 Y36.596 E101.15569
G0 F10500 X83.889 Y37.183
;TYPE:WALL-OUTER
G1 F1320 X80.152 Y36.884 E101.22915
G1 X79.882 Y36.849 E101.23448
G1 X79.332 Y36.833 E101.24526
G1 X77.717 Y36.967 E101.27702
G1 X77.183 Y37.017 E101.28753
G1 X75.065 Y37.416 E101.32976
G1 X74.539 Y37.532 E101.34031
G1 X72.488 Y38.192 E101.38253
G1 X72.104 Y38.324 E101.39049
G1 X70.622 Y38.976 E101.42221
G1 X70.134 Y39.203 E101.43276
G1 X68.272 Y40.292 E101.47502
G1 X67.814 Y40.578 E101.48560
G1 X66.103 Y41.889 E101.52784
G1 X65.685 Y42.230 E101.53841
G1 X64.147 Y43.741 E101.58066
G1 X63.774 Y44.132 E101.59124
G1 X62.438 Y45.825 E101.63350
G1 X62.120 Y46.254 E101.64397
G1 X61.526 Y47.169 E101.66534
G1 X60.765 Y48.591 E101.69694
G1 X60.443 Y49.177 E101.71005
G1 X59.625 Y51.174 E101.75233
G1 X59.436 Y51.678 E101.76288
G1 X58.873 Y53.759 E101.80512
G1 X58.748 Y54.285 E101.81571
G1 X58.447 Y56.421 E101.85798
G1 X58.386 Y57.086 E101.87107
G1 X58.327 Y58.711 E101.90293
G1 X58.434 Y60.317 E101.93447
G1 X58.446 Y60.727 E101.94250
G1 X58.842 Y63.118 E101.98999
G1 X58.951 Y63.647 E102.00057
G1 X59.577 Y65.710 E102.04282
G1 X59.751 Y66.221 E102.05339
G1 X60.741 Y68.434 E102.10090
G1 X60.937 Y68.792 E102.10889
G1 X62.357 Y71.071 E102.16151
G1 X62.584 Y71.413 E102.16955
G1 X63.614 Y72.662 E102.20127
G1 X63.959 Y73.073 E102.21179
G1 X65.495 Y74.587 E102.25405
G1 X65.891 Y74.953 E102.26461
G1 X67.607 Y76.264 E102.30693
G1 X68.269 Y76.709 E102.32256
G1 X69.655 Y77.558 E102.35441
G1 X71.115 Y78.255 E102.38611
G1 X71.602 Y78.482 E102.39663
G1 X73.633 Y79.205 E102.43888
G1 X74.146 Y79.371 E102.44944
G1 X76.252 Y79.836 E102.49170
G1 X76.782 Y79.936 E102.50227
G1 X78.927 Y80.136 E102.54448
G1 X79.465 Y80.170 E102.55504
G1 X81.619 Y80.104 E102.59727
G1 X82.157 Y80.070 E102.60783
G1 X84.290 Y79.736 E102.65014
G1 X84.943 Y79.600 E102.66321
G1 X86.515 Y79.183 E102.69507
G1 X88.029 Y78.609 E102.72680
G1 X88.407 Y78.483 E102.73461
G1 X88.894 Y78.256 E102.74514
G1 X90.356 Y77.558 E102.77688
G1 X91.740 Y76.711 E102.80867
G1 X92.296 Y76.348 E102.82168
G1 X93.607 Y75.386 E102.85355
G1 X94.800 Y74.306 E102.88508
G1 X95.111 Y74.045 E102.89303
G1 X96.501 Y72.571 E102.93273
G1 X97.169 Y71.727 E102.95382
G1 X97.427 Y71.413 E102.96179
G1 X98.323 Y70.064 E102.99352
G1 X98.615 Y69.613 E103.00405
G1 X99.614 Y67.704 E103.04626
G1 X99.849 Y67.219 E103.05682
G1 X100.603 Y65.199 E103.09907
G1 X100.777 Y64.688 E103.10965
G1 X101.338 Y62.328 E103.15718
G1 X101.609 Y60.322 E103.19684
G1 X101.649 Y58.701 E103.22862
G1 X101.676 Y58.309 E103.23632
G1 X101.673 Y58.030 E103.24178
G1 X101.506 Y55.885 E103.28394
G1 X101.447 Y55.344 E103.29460
G1 X100.532 Y51.708 E103.36807
G1 X100.477 Y51.439 E103.37345
G1 X100.316 Y50.909 E103.38430
G1 X98.912 Y48.014 E103.44735
G1 X98.809 Y47.764 E103.45265
G1 X98.555 Y47.279 E103.46337
G1 X97.644 Y45.935 E103.49519
G1 X97.255 Y45.395 E103.50823
G1 X96.233 Y44.130 E103.54009
G1 X95.094 Y42.986 E103.57172
G1 X94.724 Y42.598 E103.58223
G1 X93.489 Y41.547 E103.61401
G1 X92.969 Y41.133 E103.62703
G1 X92.084 Y40.499 E103.64836
G1 X90.694 Y39.666 E103.68011
G1 X89.995 Y39.287 E103.69569
G1 X88.535 Y38.571 E103.72756
G1 X87.016 Y38.012 E103.75927
G1 X86.511 Y37.832 E103.76978
G1 X84.421 Y37.301 E103.81203
G1 X83.889 Y37.183 E103.82271
G0 F10500 X84.144 Y36.266
G1 F1320 X86.324 Y36.833 E103.86684
G1 X86.786 Y36.925 E103.87607
G1 X86.990 Y36.984 E103.88024
G1 X88.569 Y37.585 E103.91334
G1 X89.099 Y37.803 E103.92457
G1 X90.628 Y38.530 E103.95774
G1 X91.596 Y39.090 E103.97966
G1 X91.899 Y39.257 E103.98644
G1 X93.288 Y40.214 E104.01949
G1 X93.482 Y40.342 E104.02404
G1 X95.052 Y41.611 E104.06360
G1 X96.251 Y42.806 E104.09677
G1 X96.504 Y43.037 E104.10348
G1 X97.905 Y44.669 E104.14562
G1 X98.865 Y46.043 E104.17847
G1 X99.127 Y46.427 E104.18757
G1 X100.464 Y48.893 E104.24254
G1 X100.673 Y49.296 E104.25143
G1 X101.764 Y52.492 E104.31761
G1 X101.926 Y52.926 E104.32668
G1 X102.434 Y55.573 E104.37950
G1 X102.590 Y57.153 E104.41061
G1 X102.607 Y58.834 E104.44355
G1 X102.608 Y59.296 E104.45260
G1 X102.408 Y61.530 E104.49655
G1 X102.353 Y61.984 E104.50551
G1 X102.035 Y63.639 E104.53853
G1 X101.555 Y65.258 E104.57162
G1 X101.444 Y65.709 E104.58072
G1 X100.765 Y67.492 E104.61810
G1 X100.001 Y68.995 E104.65114
G1 X99.811 Y69.422 E104.66030
G1 X98.495 Y71.510 E104.70866
G1 X98.299 Y71.801 E104.71553
G1 X97.262 Y73.117 E104.74836
G1 X96.891 Y73.557 E104.75964
G1 X94.878 Y75.528 E104.81484
G1 X94.631 Y75.755 E104.82142
G1 X93.031 Y77.006 E104.86121
G1 X89.615 Y78.985 E104.93857
G1 X88.060 Y79.612 E104.97142
G1 X87.523 Y79.834 E104.98281
G1 X85.374 Y80.462 E105.02668
G1 X84.926 Y80.578 E105.03574
G1 X83.274 Y80.886 E105.06867
G1 X81.593 Y81.029 E105.10173
G1 X81.129 Y81.092 E105.11090
G1 X79.452 Y81.100 E105.14376
G1 X78.991 Y81.108 E105.15280
G1 X77.318 Y80.949 E105.18573
G1 X76.850 Y80.899 E105.19495
G1 X74.662 Y80.469 E105.23864
G1 X73.975 Y80.290 E105.25255
G1 X72.376 Y79.805 E105.28529
G1 X70.818 Y79.158 E105.31835
G1 X70.294 Y78.922 E105.32961
G1 X67.831 Y77.559 E105.38477
G1 X67.547 Y77.392 E105.39122
G1 X66.182 Y76.391 E105.42439
G1 X65.985 Y76.252 E105.42911
G1 X63.666 Y74.135 E105.49064
G1 X63.416 Y73.891 E105.49748
G1 X62.119 Y72.346 E105.53701
G1 X60.936 Y70.684 E105.57698
G1 X60.102 Y69.223 E105.60995
G1 X59.984 Y69.027 E105.61443
G1 X59.116 Y67.192 E105.65421
G1 X58.560 Y65.708 E105.68526
G1 X57.962 Y63.540 E105.72932
G1 X57.871 Y63.196 E105.73630
G1 X57.677 Y62.120 E105.75772
G1 X57.466 Y60.199 E105.79559
G1 X57.424 Y59.631 E105.80675
G1 X57.389 Y57.945 E105.83979
G1 X57.523 Y56.268 E105.87275
G1 X57.565 Y55.693 E105.88405
G1 X57.966 Y53.478 E105.92816
G1 X58.058 Y53.043 E105.93687
G1 X58.723 Y50.889 E105.98104
G1 X58.874 Y50.446 E105.99021
G1 X60.044 Y47.901 E106.04510
G1 X60.243 Y47.487 E106.05410
G1 X61.134 Y46.061 E106.08705
G1 X61.382 Y45.672 E106.09609
G1 X63.129 Y43.469 E106.15118
G1 X63.344 Y43.203 E106.15788
G1 X64.547 Y42.028 E106.19083
G1 X64.959 Y41.621 E106.20218
G1 X66.903 Y40.071 E106.25089
G1 X68.995 Y38.763 E106.29924
G1 X69.286 Y38.590 E106.30587
G1 X70.803 Y37.851 E106.33894
G1 X71.327 Y37.617 E106.35018
G1 X73.443 Y36.856 E106.39424
G1 X74.853 Y36.475 E106.42286
G1 X76.520 Y36.183 E106.45602
G1 X77.087 Y36.078 E106.46732
G1 X79.322 Y35.910 E106.51124
G1 X79.672 Y35.891 E106.51811
G1 X81.694 Y35.943 E106.55774
G1 X84.144 Y36.266 E106.60616
G0 F10500 X84.294 Y36.565
;TYPE:SKIN
G1 F1920 X85.070 Y36.987 E106.62267
G1 X86.022 Y37.231 E106.63904
G1 X86.824 Y37.680 E106.65705
G0 F10500 X87.173 Y37.322
G1 F1920 X87.937 Y38.086 E106.67822
G0 F10500 X88.314 Y37.756
G1 F1920 X89.154 Y38.596 E106.70150
G0 F10500 X89.570 Y38.305
G1 F1920 X90.592 Y39.327 E106.72982
G0 F10500 X91.017 Y39.045
G1 F1920 X92.367 Y40.394 E106.76721
G0 F10500 X92.994 Y40.314
G1 F1920 X98.173 Y45.493 E106.91073
G0 F10500 X98.022 Y46.050
G1 F1920 X99.364 Y47.392 E106.94791
G0 F10500 X99.112 Y47.847
G1 F1920 X99.887 Y48.622 E106.96939
G0 F10500 X100.423 Y49.865
G1 F1920 X100.565 Y50.360 E106.97688
G1 X100.914 Y51.417 E106.99415
G1 X101.428 Y52.284 E107.01390
G0 F10500 X101.520 Y54.498
G1 F1920 X101.890 Y55.222 E107.02939
G1 X101.996 Y56.034 E107.04360
G1 X102.064 Y56.809 E107.05784
G1 X102.119 Y57.571 E107.07179
G1 X102.132 Y58.291 E107.08426
G1 X102.120 Y58.986 E107.09633
G1 X102.101 Y59.675 E107.10868
G1 X102.057 Y60.337 E107.11988
G1 X101.986 Y60.973 E107.13034
G1 X101.915 Y61.609 E107.14153
G1 X101.829 Y62.231 E107.15262
G1 X101.705 Y62.814 E107.16285
G1 X101.580 Y63.397 E107.17363
G1 X101.442 Y63.966 E107.18427
G1 X101.294 Y64.525 E107.19424
G1 X101.128 Y65.065 E107.20345
G1 X101.139 Y65.784 E107.21329
G1 X100.591 Y65.942 E107.22326
G1 X100.754 Y66.813 E107.23312
G1 X100.207 Y66.973 E107.24292
G1 X100.327 Y67.800 E107.25219
G1 X99.765 Y67.945 E107.26113
G1 X99.851 Y68.739 E107.27008
G1 X99.281 Y68.875 E107.27927
G1 X99.362 Y69.663 E107.28864
G1 X98.783 Y69.792 E107.29715
G1 X98.815 Y70.531 E107.30550
G1 X98.228 Y70.651 E107.31405
G1 X98.265 Y71.395 E107.32283
G1 X97.659 Y71.496 E107.33164
G1 X97.661 Y72.205 E107.34009
G1 X97.039 Y72.291 E107.34863
G1 X97.034 Y72.992 E107.35720
G1 X96.387 Y73.053 E107.36594
G1 X96.356 Y73.729 E107.37477
G1 X95.701 Y73.781 E107.38321
G1 X95.641 Y74.428 E107.39123
G1 X94.986 Y74.480 E107.39916
G1 X94.926 Y75.128 E107.40768
G1 X94.240 Y75.148 E107.41661
G1 X94.176 Y75.792 E107.42549
G1 X93.472 Y75.794 E107.43385
G1 X93.382 Y76.412 E107.44251
G1 X92.657 Y76.393 E107.45144
G1 X92.550 Y76.994 E107.46031
G1 X91.808 Y76.958 E107.46867
G1 X91.655 Y77.513 E107.47663
G1 X90.933 Y77.497 E107.48436
G1 X90.760 Y78.032 E107.49180
G1 X90.016 Y77.995 E107.49954
G1 X89.864 Y78.551 E107.50817
G1 X89.056 Y78.450 E107.51771
G1 X88.903 Y79.004 E107.52708
G1 X88.061 Y78.868 E107.53624
G1 X87.897 Y79.412 E107.54588
G1 X87.032 Y79.254 E107.55573
G1 X86.842 Y79.771 E107.56517
G1 X86.127 Y79.763 E107.57441
G1 X85.574 Y79.917 E107.58400
G1 X85.016 Y80.066 E107.59391
G1 X84.430 Y80.187 E107.60444
G1 X83.831 Y80.295 E107.61525
G1 X83.221 Y80.393 E107.62650
G1 X82.590 Y80.469 E107.63786
G1 X81.955 Y80.541 E107.64830
G1 X81.303 Y80.595 E107.65930
G1 X80.613 Y80.613 E107.67177
G1 X79.919 Y80.626 E107.68404
G1 X79.219 Y80.634 E107.69617
G1 X78.451 Y80.572 E107.71006
G1 X77.671 Y80.499 E107.72418
G1 X76.878 Y80.413 E107.73831
G1 X76.019 Y80.262 E107.75328
G1 X75.125 Y80.074 E107.76900
G1 X74.205 Y79.861 E107.78546
G1 X73.363 Y79.374 E107.80452
G0 F10500 X73.021 Y79.739
G1 F1920 X72.265 Y78.983 E107.82547
G0 F10500 X71.919 Y79.343
G1 F1920 X71.090 Y78.515 E107.84843
G0 F10500 X70.697 Y78.828
G1 F1920 X69.744 Y77.876 E107.87482
G0 F10500 X69.181 Y78.020
G1 F1920 X67.970 Y76.809 E107.90838
G0 F10500 X67.502 Y77.048
G1 F1920 X61.505 Y71.051 E108.07456
G0 F10500 X61.785 Y70.624
G1 F1920 X60.397 Y69.236 E108.11302
G0 F10500 X60.643 Y68.775
G1 F1920 X59.692 Y67.824 E108.13938
G0 F10500 X60.029 Y67.454
G1 F1920 X59.153 Y66.577 E108.16367
G0 F10500 X59.479 Y66.197
G1 F1920 X58.754 Y65.472 E108.18376
G0 F10500 X59.149 Y65.159
G1 F1920 X58.664 Y64.321 E108.20204
G1 X58.412 Y63.361 E108.21924
G1 X58.241 Y62.484 E108.23538
G1 X58.106 Y61.641 E108.25120
G1 X57.998 Y60.827 E108.26556
G1 X57.937 Y60.058 E108.27877
G1 X57.888 Y59.302 E108.29227
G1 X57.870 Y58.577 E108.30481
G1 X57.875 Y57.875 E108.31719
G1 X57.911 Y57.204 E108.32896
G1 X57.966 Y56.552 E108.33999
G1 X58.034 Y55.912 E108.35123
G1 X58.119 Y55.291 E108.36251
G1 X58.217 Y54.681 E108.37326
G1 X58.326 Y54.084 E108.38344
G1 X58.452 Y53.502 E108.39364
G1 X58.591 Y52.935 E108.40427
G1 X58.750 Y52.386 E108.41447
G1 X58.909 Y51.838 E108.42417
G1 X59.083 Y51.305 E108.43344
G1 X59.092 Y50.607 E108.44304
G1 X59.647 Y50.454 E108.45284
G1 X59.524 Y49.624 E108.46214
G1 X60.058 Y49.452 E108.47100
G1 X59.969 Y48.656 E108.47938
G1 X60.522 Y48.501 E108.48816
G1 X60.427 Y47.699 E108.49759
G1 X61.018 Y47.583 E108.50713
G1 X60.957 Y46.816 E108.51599
G1 X61.539 Y46.689 E108.52447
G1 X61.507 Y45.951 E108.53309
G1 X62.111 Y45.847 E108.54174
G1 X62.117 Y45.146 E108.55009
G1 X62.729 Y45.051 E108.55837
G1 X62.742 Y44.358 E108.56662
G1 X63.352 Y44.261 E108.57488
G1 X63.369 Y43.570 E108.58303
G1 X64.022 Y43.516 E108.59189
G1 X64.061 Y42.848 E108.60060
G1 X64.733 Y42.813 E108.60932
G1 X64.776 Y42.149 E108.61801
G1 X65.451 Y42.116 E108.62667
G1 X65.528 Y41.487 E108.63504
G1 X66.226 Y41.477 E108.64335
G1 X66.315 Y40.860 E108.65185
G1 X67.027 Y40.865 E108.66056
G1 X67.115 Y40.245 E108.66949
G1 X67.844 Y40.267 E108.67790
G1 X67.978 Y39.693 E108.68619
G1 X68.726 Y39.735 E108.69467
G1 X68.848 Y39.149 E108.70349
G1 X69.619 Y39.213 E108.71265
G1 X69.752 Y38.639 E108.72172
G1 X70.554 Y38.734 E108.73059
G1 X70.703 Y38.176 E108.73980
G1 X71.534 Y38.300 E108.74941
G1 X71.692 Y37.751 E108.75902
G1 X72.381 Y37.732 E108.76836
G1 X73.089 Y37.734 E108.77805
G1 X73.252 Y37.189 E108.78817
G1 X73.980 Y37.210 E108.79864
G1 X74.526 Y37.050 E108.80856
G1 X75.103 Y36.919 E108.81897
G1 X75.701 Y36.810 E108.82986
G1 X76.299 Y36.701 E108.84063
G1 X76.896 Y36.591 E108.85119
G1 X77.528 Y36.515 E108.86227
G1 X78.182 Y36.463 E108.87348
G1 X78.837 Y36.410 E108.88452
G1 X79.497 Y36.363 E108.89552
G1 X80.114 Y36.627 E108.90867
G0 F10500 X83.036 Y36.720
G1 F1920 X83.320 Y36.652 E108.91296
G1 X83.966 Y36.943 E108.92684
G1 F600 E107.42684
G1 Z1.025
G0 F10500 X79.863 Y88.318
;TYPE:WALL-INNER
G1 Z0.925
G1 F600 E108.92684
G1 F1440 X81.331 Y88.452 E108.95573
G1 X82.594 Y88.569 E108.98058
G1 X85.397 Y89.376 E109.03773
G1 X86.844 Y90.124 E109.06965
G1 X88.089 Y90.770 E109.09713
G1 X89.382 Y91.819 E109.12976
G1 X90.494 Y92.724 E109.15785
G1 X92.448 Y95.129 E109.21857
G1 X93.198 Y96.575 E109.25049
G1 X93.841 Y97.819 E109.27793
G1 X94.276 Y99.325 E109.30864
G1 X94.648 Y100.623 E109.33510
G1 X94.784 Y102.090 E109.36397
G1 X94.899 Y103.357 E109.38890
G1 X94.649 Y106.092 E109.44271
G1 X94.216 Y107.597 E109.47339
G1 X93.841 Y108.895 E109.49987
G1 X92.450 Y111.584 E109.55919
G1 X90.494 Y113.990 E109.61995
G1 X88.091 Y115.943 E109.68062
G1 X86.642 Y116.695 E109.71261
G1 X85.398 Y117.339 E109.74006
G1 X83.892 Y117.774 E109.77077
G1 X82.596 Y118.145 E109.79719
G1 X79.861 Y118.397 E109.85101
G1 X78.392 Y118.263 E109.87991
G1 X77.128 Y118.146 E109.90478
G1 X74.327 Y117.341 E109.96189
G1 X72.880 Y116.591 E109.99382
G1 X71.632 Y115.943 E110.02138
G1 X70.341 Y114.895 E110.05396
G1 X69.232 Y113.992 E110.08198
G1 X67.272 Y111.583 E110.14283
G1 X65.879 Y108.893 E110.20219
G1 X65.446 Y107.389 E110.23286
G1 X65.075 Y106.094 E110.25925
G1 X64.822 Y103.357 E110.31311
G1 X64.940 Y102.092 E110.33800
G1 X65.074 Y100.622 E110.36693
G1 X65.878 Y97.823 E110.42399
G1 X67.274 Y95.129 E110.48344
G1 X69.229 Y92.724 E110.54417
G1 X71.634 Y90.770 E110.60489
G1 X73.079 Y90.020 E110.63679
G1 X74.324 Y89.377 E110.66425
G1 X75.831 Y88.941 E110.69499
G1 X77.126 Y88.570 E110.72138
G1 X79.863 Y88.318 E110.77524
G0 F10500 X79.364 Y93.679
G1 F1440 X77.571 Y93.856 E110.81054
G1 X76.677 Y94.128 E110.82885
G1 X75.850 Y94.377 E110.84578
G1 X74.263 Y95.226 E110.88104
G1 X73.540 Y95.819 E110.89936
G1 X72.871 Y96.367 E110.91631
G1 X72.279 Y97.090 E110.93462
G1 X71.731 Y97.757 E110.95153
G1 X70.883 Y99.344 E110.98679
G1 X70.612 Y100.239 E111.00511
G1 X70.360 Y101.066 E111.02205
G1 X70.269 Y101.999 E111.04042
G1 X70.183 Y102.856 E111.05730
G1 X70.360 Y104.649 E111.09260
G1 X70.632 Y105.542 E111.11089
G1 X70.882 Y106.369 E111.12782
G1 X71.323 Y107.193 E111.14614
G1 X71.730 Y107.957 E111.16310
G1 X72.872 Y109.346 E111.19833
G1 X74.263 Y110.489 E111.23361
G1 X75.087 Y110.928 E111.25190
G1 X75.849 Y111.337 E111.26885
G1 X76.746 Y111.608 E111.28721
G1 X77.571 Y111.859 E111.30411
G1 X78.501 Y111.950 E111.32242
G1 X79.360 Y112.036 E111.33933
G1 X81.151 Y111.859 E111.37460
G1 X82.874 Y111.337 E111.40987
G1 X84.459 Y110.489 E111.44510
G1 X85.850 Y109.349 E111.48034
G1 X86.442 Y108.626 E111.49865
G1 X86.992 Y107.958 E111.51560
G1 X87.431 Y107.132 E111.53393
G1 X87.839 Y106.371 E111.55085
G1 X88.110 Y105.475 E111.56919
G1 X88.362 Y104.649 E111.58611
G1 X88.453 Y103.715 E111.60450
G1 X88.539 Y102.858 E111.62138
G1 X88.362 Y101.068 E111.65662
G1 X88.090 Y100.172 E111.67497
G1 X87.841 Y99.345 E111.69189
G1 X87.399 Y98.521 E111.71021
G1 X86.993 Y97.759 E111.72713
G1 X85.852 Y96.368 E111.76238
G1 X84.698 Y95.423 E111.79161
G1 X84.458 Y95.227 E111.79768
G1 X82.873 Y94.378 E111.83291
G1 X81.979 Y94.107 E111.85122
G1 X81.152 Y93.856 E111.86815
G1 X80.220 Y93.765 E111.88650
G1 X79.364 Y93.679 E111.90336
G0 F10500 X79.363 Y94.182
;TYPE:WALL-OUTER
G1 F1320 X77.669 Y94.349 E111.93671
G1 X76.042 Y94.842 E111.97002
G1 X74.542 Y95.643 E112.00334
G1 X73.226 Y96.723 E112.03670
G1 X72.149 Y98.037 E112.06999
G1 X71.347 Y99.536 E112.10330
G1 X70.853 Y101.164 E112.13664
G1 X70.686 Y102.857 E112.16997
G1 X70.853 Y104.551 E112.20333
G1 X71.346 Y106.177 E112.23662
G1 X72.148 Y107.678 E112.26996
G1 X73.227 Y108.991 E112.30326
G1 X74.542 Y110.071 E112.33661
G1 X75.325 Y110.488 E112.35399
G1 X76.042 Y110.873 E112.36994
G1 X77.669 Y111.366 E112.40325
G1 X79.360 Y111.533 E112.43654
G1 X81.053 Y111.366 E112.46988
G1 X82.681 Y110.873 E112.50321
G1 X84.180 Y110.071 E112.53652
G1 X85.495 Y108.994 E112.56982
G1 X86.574 Y107.678 E112.60317
G1 X87.375 Y106.178 E112.63649
G1 X87.869 Y104.551 E112.66981
G1 X88.036 Y102.857 E112.70316
G1 X87.869 Y101.166 E112.73646
G1 X87.376 Y99.537 E112.76980
G1 X86.575 Y98.037 E112.80312
G1 X85.497 Y96.723 E112.83643
G1 X84.180 Y95.645 E112.86977
G1 X82.681 Y94.842 E112.90310
G1 X81.054 Y94.349 E112.93641
G1 X79.363 Y94.182 E112.96970
G0 F10500 X79.398 Y93.835
G0 X79.862 Y88.166
G0 X79.862 Y87.816
G1 F1320 X82.688 Y88.076 E113.02531
G1 X85.579 Y88.908 E113.08426
G1 X88.363 Y90.349 E113.14568
G1 X90.849 Y92.369 E113.20845
G1 X92.869 Y94.855 E113.27121
G1 X94.310 Y97.638 E113.33262
G1 X95.142 Y100.529 E113.39156
G1 X95.401 Y103.357 E113.44721
G1 X95.142 Y106.186 E113.50287
G1 X94.310 Y109.076 E113.56180
G1 X92.869 Y111.860 E113.62323
G1 X90.849 Y114.345 E113.68598
G1 X88.363 Y116.365 E113.74874
G1 X85.579 Y117.808 E113.81018
G1 X82.688 Y118.639 E113.86912
G1 X79.862 Y118.899 E113.92473
G1 X77.034 Y118.639 E113.98038
G1 X74.143 Y117.808 E114.03932
G1 X71.360 Y116.365 E114.10074
G1 X68.874 Y114.345 E114.16351
G1 X66.853 Y111.860 E114.22627
G1 X65.411 Y109.076 E114.28770
G1 X64.581 Y106.186 E114.34662
G1 X64.320 Y103.357 E114.40229
G1 X64.580 Y100.528 E114.45796
G1 X65.411 Y97.638 E114.51688
G1 X66.853 Y94.855 E114.57829
G1 X68.874 Y92.369 E114.64107
G1 X71.360 Y90.349 E114.70384
G1 X74.143 Y88.908 E114.76524
G1 X77.034 Y88.076 E114.82419
G1 X79.862 Y87.816 E114.87984
G0 F10500 X79.672 Y88.511
;TYPE:SKIN
G1 F1920 X94.705 Y103.544 E115.29641
G0 F10500 X94.646 Y104.192
G1 F1920 X79.025 Y88.571 E115.72928
G0 F10500 X78.377 Y88.630
G1 F1920 X94.587 Y104.840 E116.17846
G0 F10500 X94.528 Y105.489
G1 F1920 X87.643 Y98.603 E116.36927
G0 F10500 X88.172 Y99.839
G1 F1920 X94.458 Y106.125 E116.54345
G0 F10500 X94.299 Y106.674
G1 F1920 X88.479 Y100.853 E116.70474
G0 F10500 X88.596 Y101.678
G1 F1920 X94.141 Y107.222 E116.85838
G0 F10500 X93.983 Y107.772
G1 F1920 X88.674 Y102.463 E117.00550
G0 F10500 X88.681 Y103.177
G1 F1920 X93.825 Y108.320 E117.14803
G0 F10500 X93.660 Y108.863
G1 F1920 X88.618 Y103.820 E117.28776
G0 F10500 X88.555 Y104.465
G1 F1920 X93.419 Y109.329 E117.42254
G0 F10500 X93.178 Y109.795
G1 F1920 X88.424 Y105.041 E117.55428
G0 F10500 X88.259 Y105.583
G1 F1920 X92.937 Y110.261 E117.68391
G0 F10500 X92.696 Y110.727
G1 F1920 X88.094 Y106.126 E117.81142
G0 F10500 X87.896 Y106.634
G1 F1920 X92.454 Y111.193 E117.93774
G0 F10500 X92.185 Y111.630
G1 F1920 X87.650 Y107.095 E118.06341
G0 F10500 X87.404 Y107.556
G1 F1920 X91.868 Y112.020 E118.18711
G0 F10500 X91.551 Y112.410
G1 F1920 X87.157 Y108.017 E118.30885
G0 F10500 X86.844 Y108.411
G1 F1920 X91.234 Y112.801 E118.43050
G0 F10500 X90.916 Y113.190
G1 F1920 X86.525 Y108.799 E118.55218
G0 F10500 X86.207 Y109.188
G1 F1920 X90.600 Y113.581 E118.67391
G0 F10500 X90.262 Y113.950
G1 F1920 X85.870 Y109.558 E118.79562
G0 F10500 X85.482 Y109.877
G1 F1920 X89.872 Y114.267 E118.91727
G0 F10500 X89.482 Y114.584
G1 F1920 X85.093 Y110.195 E119.03889
G0 F10500 X84.705 Y110.514
G1 F1920 X89.091 Y114.901 E119.16044
G0 F10500 X88.702 Y115.218
G1 F1920 X84.271 Y110.788 E119.28321
G0 F10500 X83.811 Y111.034
G1 F1920 X88.311 Y115.535 E119.40792
G0 F10500 X87.908 Y115.838
G1 F1920 X83.350 Y111.280 E119.53423
G0 F10500 X82.879 Y111.517
G1 F1920 X87.442 Y116.080 E119.66067
G0 F10500 X86.976 Y116.321
G1 F1920 X82.336 Y111.681 E119.78925
G0 F10500 X81.794 Y111.846
G1 F1920 X86.510 Y116.563 E119.91995
G0 F10500 X86.045 Y116.804
G1 F1920 X81.251 Y112.010 E120.05279
G0 F10500 X80.620 Y112.086
G1 F1920 X85.579 Y117.045 E120.19021
G0 F10500 X85.075 Y117.248
G1 F1920 X79.976 Y112.149 E120.33150
G0 F10500 X79.327 Y112.207
G1 F1920 X84.526 Y117.406 E120.47557
G0 F10500 X83.977 Y117.564
G1 F1920 X78.542 Y112.130 E120.62616
G0 F10500 X77.756 Y112.051
G1 F1920 X83.427 Y117.722 E120.78331
G0 F10500 X82.879 Y117.881
G1 F1920 X76.807 Y111.809 E120.95157
G0 F10500 X75.793 Y111.502
G1 F1920 X82.288 Y117.997 E121.13155
G0 F10500 X81.640 Y118.056
G1 F1920 X74.282 Y110.698 E121.33544
G0 F10500 X71.521 Y107.937
G1 F1920 X65.162 Y101.578 E121.51165
G0 F10500 X65.101 Y102.225
G1 F1920 X80.992 Y118.115 E121.95199
G0 F10500 X80.345 Y118.175
G1 F1920 X65.042 Y102.872 E122.37604
G0 F10500 X65.015 Y103.552
G1 F1920 X79.664 Y118.202 E122.78199
G0 F10500 X78.886 Y118.130
G1 F1920 X65.087 Y104.332 E123.16435
G0 F10500 X65.159 Y105.111
G1 F1920 X78.107 Y118.059 E123.52315
G0 F10500 X77.329 Y117.987
G1 F1920 X65.232 Y105.890 E123.85836
G0 F10500 X65.470 Y106.836
G1 F1920 X76.383 Y117.748 E124.16076
G0 F10500 X75.391 Y117.463
G1 F1920 X65.755 Y107.828 E124.42776
G0 F10500 X66.040 Y108.820
G1 F1920 X74.398 Y117.178 E124.65937
G0 F10500 X72.931 Y116.418
G1 F1920 X66.797 Y110.284 E124.82934
G0 F10500 X67.980 Y112.174
G1 F1920 X71.041 Y115.235 E124.91417
G0 F10500 X70.717 Y106.426
G1 F1920 X65.221 Y100.930 E125.06646
G0 F10500 X65.337 Y100.339
G1 F1920 X70.409 Y105.411 E125.20701
G0 F10500 X70.166 Y104.461
G1 F1920 X65.495 Y99.789 E125.33646
G0 F10500 X65.652 Y99.240
G1 F1920 X70.089 Y103.676 E125.45940
G0 F10500 X70.012 Y102.892
G1 F1920 X65.810 Y98.690 E125.57584
G0 F10500 X65.968 Y98.141
G1 F1920 X70.068 Y102.241 E125.68945
G0 F10500 X70.132 Y101.598
G1 F1920 X66.171 Y97.637 E125.79921
G0 F10500 X66.412 Y97.171
G1 F1920 X70.207 Y100.966 E125.90437
G0 F10500 X70.372 Y100.424
G1 F1920 X66.654 Y96.706 E126.00740
G0 F10500 X66.895 Y96.240
G1 F1920 X70.537 Y99.882 E126.10832
G0 F10500 X70.702 Y99.340
G1 F1920 X67.136 Y95.774 E126.20714
G0 F10500 X67.378 Y95.308
G1 F1920 X70.937 Y98.868 E126.30578
G0 F10500 X71.184 Y98.408
G1 F1920 X67.681 Y94.905 E126.40285
G0 F10500 X67.998 Y94.514
G1 F1920 X71.430 Y97.947 E126.49796
G0 F10500 X71.704 Y97.514
G1 F1920 X68.315 Y94.125 E126.59187
G0 F10500 X68.632 Y93.734
G1 F1920 X72.023 Y97.125 E126.68584
G0 F10500 X72.341 Y96.736
G1 F1920 X68.949 Y93.344 E126.77983
G0 F10500 X69.266 Y92.954
G1 F1920 X72.659 Y96.347 E126.87386
G0 F10500 X73.028 Y96.009
G1 F1920 X69.637 Y92.618 E126.96782
G0 F10500 X70.027 Y92.301
G1 F1920 X73.417 Y95.691 E127.06176
G0 F10500 X73.805 Y95.372
G1 F1920 X70.417 Y91.984 E127.15565
G0 F10500 X70.808 Y91.667
G1 F1920 X74.199 Y95.059 E127.24963
G0 F10500 X74.660 Y94.813
G1 F1920 X71.197 Y91.350 E127.34559
G0 F10500 X71.588 Y91.033
G1 F1920 X75.121 Y94.567 E127.44350
G0 F10500 X75.582 Y94.320
G1 F1920 X72.026 Y90.764 E127.54204
G0 F10500 X72.491 Y90.523
G1 F1920 X76.089 Y94.120 E127.64173
G0 F10500 X76.632 Y93.956
G1 F1920 X72.957 Y90.281 E127.74357
G0 F10500 X73.423 Y90.040
G1 F1920 X77.175 Y93.792 E127.84754
G0 F10500 X77.752 Y93.661
G1 F1920 X73.889 Y89.799 E127.95457
G0 F10500 X74.355 Y89.557
G1 F1920 X78.395 Y93.598 E128.06653
G0 F10500 X79.039 Y93.535
G1 F1920 X74.898 Y89.393 E128.18130
G0 F10500 X75.446 Y89.235
G1 F1920 X79.753 Y93.541 E128.30063
G0 F10500 X80.537 Y93.618
G1 F1920 X75.996 Y89.077 E128.42647
G0 F10500 X76.545 Y88.919
G1 F1920 X81.361 Y93.736 E128.55993
G0 F10500 X82.377 Y94.044
G1 F1920 X77.093 Y88.760 E128.70636
G0 F10500 X77.730 Y88.690
G1 F1920 X83.616 Y94.576 E128.86946
G0 F10500 X85.991 Y89.880
G1 F1920 X93.338 Y97.227 E129.07305
G0 F10500 X93.835 Y98.432
G1 F1920 X84.784 Y89.381 E129.32386
G0 F10500 X83.792 Y89.095
G1 F1920 X94.121 Y99.424 E129.61008
G0 F10500 X94.407 Y100.417
G1 F1920 X82.799 Y88.809 E129.93175
G0 F10500 X81.969 Y88.687
G1 F1920 X94.529 Y101.247 E130.27979
G0 F10500 X94.600 Y102.025
G1 F1920 X81.191 Y88.616 E130.65136
G0 F10500 X80.412 Y88.544
G1 F1920 X94.672 Y102.804 E131.04651
G0 F10500 X92.578 Y95.760
G1 F1920 X87.457 Y90.639 E131.18842
;LAYER:3
G1 F600 E129.68842
G1 Z1.025
G0 F10500 X101.676 Y54.186 Z1.175
;TYPE:WALL-INNER
G1 Z1.175
G1 F600 E131.18842
G1 F1740 X101.277 Y52.598 E131.22050
G1 X101.429 Y53.002 E131.22896
G1 X101.558 Y53.538 E131.23976
G1 X101.676 Y54.186 E131.25267
G0 F10500 X100.212 Y49.493
G1 F1740 X100.277 Y49.681 E131.25657
G1 X99.866 Y48.834 E131.27501
G1 X100.212 Y49.493 E131.28960
G0 F10500 X97.560 Y45.058
G0 X93.462 Y40.934
G0 X88.712 Y38.158
G0 X83.915 Y36.731
G0 X82.769 Y36.588
G1 F1740 X80.642 Y36.416 E131.33141
G1 X81.656 Y36.442 E131.35129
G1 X82.769 Y36.588 E131.37328
G0 F10500 X83.849 Y37.176
;TYPE:WALL-OUTER
G1 F1500 X80.396 Y36.899 E131.44116
G1 X80.044 Y36.854 E131.44811
G1 X79.332 Y36.833 E131.46207
G1 X77.839 Y36.957 E131.49142
G1 X77.142 Y37.022 E131.50514
G1 X75.185 Y37.390 E131.54416
G1 X74.498 Y37.542 E131.55795
G1 X72.604 Y38.152 E131.59693
G1 X72.104 Y38.324 E131.60729
G1 X70.735 Y38.927 E131.63661
G1 X70.098 Y39.223 E131.65037
G1 X68.376 Y40.229 E131.68945
G1 X67.781 Y40.602 E131.70321
G1 X66.199 Y41.814 E131.74226
G1 X65.655 Y42.258 E131.75602
G1 X64.233 Y43.655 E131.79508
G1 X63.748 Y44.163 E131.80884
G1 X62.513 Y45.728 E131.84790
G1 X62.098 Y46.289 E131.86157
G1 X61.549 Y47.135 E131.88134
G1 X60.849 Y48.440 E131.91035
G1 X60.579 Y48.895 E131.92072
G1 X60.423 Y49.220 E131.92778
G1 X59.669 Y51.060 E131.96675
G1 X59.423 Y51.717 E131.98049
G1 X58.903 Y53.640 E132.01953
G1 X58.740 Y54.324 E132.03330
G1 X58.411 Y56.646 E132.07926
G1 X58.382 Y57.173 E132.08960
G1 X58.328 Y58.670 E132.11895
G1 X58.427 Y60.153 E132.14807
G1 X58.442 Y60.687 E132.15854
G1 X58.819 Y62.996 E132.20438
G1 X58.960 Y63.687 E132.21820
G1 X59.539 Y65.593 E132.25723
G1 X59.765 Y66.258 E132.27100
G1 X60.722 Y68.397 E132.31691
G1 X60.977 Y68.863 E132.32732
G1 X62.289 Y70.969 E132.37594
G1 X62.584 Y71.413 E132.38638
G1 X63.536 Y72.568 E132.41571
G1 X63.986 Y73.104 E132.42942
G1 X65.405 Y74.502 E132.46846
G1 X65.922 Y74.979 E132.48224
G1 X67.507 Y76.192 E132.52135
G1 X68.374 Y76.773 E132.54180
G1 X69.655 Y77.558 E132.57124
G1 X71.004 Y78.202 E132.60053
G1 X71.640 Y78.498 E132.61427
G1 X73.516 Y79.166 E132.65329
G1 X74.186 Y79.382 E132.66709
G1 X76.132 Y79.812 E132.70614
G1 X76.822 Y79.942 E132.71989
G1 X78.805 Y80.127 E132.75892
G1 X79.506 Y80.171 E132.77268
G1 X81.497 Y80.110 E132.81171
G1 X82.198 Y80.067 E132.82547
G1 X84.514 Y79.703 E132.87141
G1 X85.027 Y79.579 E132.88175
G1 X86.476 Y79.194 E132.91113
G1 X87.875 Y78.664 E132.94044
G1 X88.369 Y78.499 E132.95065
G1 X89.005 Y78.203 E132.96439
G1 X90.356 Y77.558 E132.99373
G1 X91.628 Y76.779 E133.02295
G1 X91.935 Y76.599 E133.02993
G1 X92.367 Y76.297 E133.04026
G1 X93.575 Y75.411 E133.06961
G1 X94.675 Y74.413 E133.09871
G1 X95.082 Y74.074 E133.10909
G1 X95.452 Y73.695 E133.11947
G1 X96.474 Y72.601 E133.14880
G1 X97.090 Y71.821 E133.16828
G1 X97.427 Y71.413 E133.17865
G1 X98.255 Y70.166 E133.20798
G1 X98.637 Y69.578 E133.22172
G1 X99.559 Y67.814 E133.26072
G1 X99.865 Y67.181 E133.27449
G1 X100.563 Y65.315 E133.31353
G1 X100.790 Y64.649 E133.32732
G1 X101.248 Y62.716 E133.36624
G1 X101.332 Y62.370 E133.37322
G1 X101.410 Y61.848 E133.38356
G1 X101.605 Y60.361 E133.41295
G1 X101.642 Y58.865 E133.44227
G1 X101.677 Y58.350 E133.45238
G1 X101.672 Y57.988 E133.45948
G1 X101.518 Y56.007 E133.49841
G1 X101.442 Y55.303 E133.51229
G1 X100.597 Y51.944 E133.58015
G1 X100.523 Y51.595 E133.58714
G1 X100.316 Y50.909 E133.60119
G1 X99.019 Y48.234 E133.65944
G1 X98.885 Y47.910 E133.66631
G1 X98.555 Y47.279 E133.68026
G1 X97.713 Y46.036 E133.70968
G1 X97.204 Y45.331 E133.72671
G1 X96.259 Y44.161 E133.75618
G1 X95.207 Y43.105 E133.78539
G1 X94.724 Y42.598 E133.79911
G1 X93.185 Y41.288 E133.83871
G1 X92.084 Y40.499 E133.86525
G1 X90.799 Y39.729 E133.89461
G1 X89.884 Y39.232 E133.91501
G1 X88.535 Y38.571 E133.94444
G1 X87.131 Y38.055 E133.97375
G1 X86.472 Y37.820 E133.98746
G1 X84.541 Y37.329 E134.02650
G1 X83.849 Y37.176 E134.04039
G0 F10500 X84.070 Y36.254
G1 F1500 X86.108 Y36.784 E134.08165
G1 X86.714 Y36.904 E134.09376
G1 X86.990 Y36.984 E134.09939
G1 X88.465 Y37.545 E134.13031
G1 X89.177 Y37.840 E134.14541
G1 X90.584 Y38.510 E134.17595
G1 X91.499 Y39.036 E134.19663
G1 X91.899 Y39.257 E134.20558
G1 X93.196 Y40.150 E134.23644
G1 X93.443 Y40.313 E134.24223
G1 X95.030 Y41.593 E134.28218
G1 X96.144 Y42.703 E134.31300
G1 X96.485 Y43.016 E134.32207
G1 X96.881 Y43.469 E134.33386
G1 X97.905 Y44.668 E134.36475
G1 X98.802 Y45.952 E134.39544
G1 X99.143 Y46.451 E134.40729
G1 X100.395 Y48.762 E134.45879
G1 X100.673 Y49.296 E134.47058
G1 X101.692 Y52.281 E134.53239
G1 X101.907 Y52.854 E134.54438
G1 X102.047 Y53.430 E134.55599
G1 X102.425 Y55.511 E134.59744
G1 X102.496 Y56.106 E134.60918
G1 X102.590 Y57.149 E134.62970
G1 X102.606 Y58.721 E134.66050
G1 X102.607 Y59.333 E134.67249
G1 X102.420 Y61.419 E134.71353
G1 X102.346 Y62.034 E134.72567
G1 X102.054 Y63.553 E134.75598
G1 X101.602 Y65.078 E134.78714
G1 X101.456 Y65.672 E134.79913
G1 X100.792 Y67.423 E134.83582
G1 X100.080 Y68.827 E134.86667
G1 X99.831 Y69.385 E134.87864
G1 X98.556 Y71.417 E134.92565
G1 X98.299 Y71.801 E134.93470
G1 X97.331 Y73.029 E134.96534
G1 X96.841 Y73.612 E134.98026
G1 X94.960 Y75.453 E135.03183
G1 X94.631 Y75.755 E135.04058
G1 X93.031 Y77.006 E135.08038
G1 X92.776 Y77.174 E135.08636
G1 X89.654 Y78.965 E135.15689
G1 X88.197 Y79.554 E135.18768
G1 X87.491 Y79.845 E135.20264
G1 X85.481 Y80.433 E135.24368
G1 X84.890 Y80.586 E135.25564
G1 X83.347 Y80.874 E135.28640
G1 X81.776 Y81.007 E135.31729
G1 X81.166 Y81.091 E135.32936
G1 X79.600 Y81.098 E135.36004
G1 X78.991 Y81.108 E135.37198
G1 X77.429 Y80.960 E135.40272
G1 X76.812 Y80.894 E135.41488
G1 X74.465 Y80.432 E135.46175
G1 X73.876 Y80.260 E135.47377
G1 X72.376 Y79.805 E135.50449
G1 X70.919 Y79.200 E135.53540
G1 X70.234 Y78.893 E135.55011
G1 X67.927 Y77.616 E135.60177
G1 X67.547 Y77.392 E135.61042
G1 X66.274 Y76.458 E135.64135
G1 X65.672 Y75.990 E135.65629
G1 X63.746 Y74.213 E135.70764
G1 X63.416 Y73.891 E135.71668
G1 X62.119 Y72.346 E135.75620
G1 X60.936 Y70.684 E135.79618
G1 X60.157 Y69.319 E135.82697
G1 X60.001 Y69.060 E135.83290
G1 X59.131 Y67.226 E135.87267
G1 X58.549 Y65.672 E135.90519
G1 X57.990 Y63.647 E135.94635
G1 X57.871 Y63.197 E135.95547
G1 X57.633 Y61.884 E135.98161
G1 X57.476 Y60.309 E136.01263
G1 X57.439 Y60.010 E136.01853
G1 X57.389 Y57.981 E136.05830
G1 X57.515 Y56.412 E136.08914
G1 X57.567 Y55.666 E136.10380
G1 X57.943 Y53.594 E136.14506
G1 X58.070 Y52.993 E136.15710
G1 X58.688 Y50.995 E136.19807
G1 X58.887 Y50.411 E136.21016
G1 X59.979 Y48.036 E136.26138
G1 X60.245 Y47.484 E136.27339
G1 X61.075 Y46.156 E136.30408
G1 X61.403 Y45.641 E136.31604
G1 X63.034 Y43.583 E136.36749
G1 X63.315 Y43.235 E136.37626
G1 X64.446 Y42.132 E136.40721
G1 X64.976 Y41.604 E136.42187
G1 X66.629 Y40.288 E136.46327
G1 X67.107 Y39.929 E136.47499
G1 X68.900 Y38.819 E136.51631
G1 X69.286 Y38.590 E136.52510
G1 X70.703 Y37.900 E136.55598
G1 X71.400 Y37.587 E136.57095
G1 X73.365 Y36.882 E136.61186
G1 X74.820 Y36.485 E136.64141
G1 X76.374 Y36.212 E136.67233
G1 X76.820 Y36.114 E136.68127
G1 X79.211 Y35.917 E136.72828
G1 X79.672 Y35.891 E136.73733
G1 X81.696 Y35.943 E136.77700
G1 X84.070 Y36.254 E136.82392
G0 F10500 X84.053 Y36.508
;TYPE:SKIN
G1 F2400 X83.541 Y36.666 E136.83505
G1 X82.996 Y36.857 E136.84636
G0 F10500 X84.258 Y37.010
G1 F2400 X84.722 Y36.899 E136.85621
G1 X85.284 Y37.043 E136.86576
G1 X85.847 Y37.188 E136.87526
G1 X86.416 Y37.326 E136.88504
G1 X87.139 Y37.310 E136.89504
G1 X87.301 Y37.856 E136.90486
G1 X88.165 Y37.698 E136.91454
G1 X88.337 Y38.233 E136.92405
G1 X89.164 Y38.114 E136.93302
G1 X89.311 Y38.673 E136.94222
G1 X90.124 Y38.567 E136.95150
G1 X90.251 Y39.148 E136.96097
G1 X91.044 Y39.063 E136.97034
G1 X91.159 Y39.654 E136.97947
G1 X91.934 Y39.587 E136.98895
G1 X92.042 Y40.185 E136.99784
G1 X92.773 Y40.162 E137.00618
G1 X92.879 Y40.763 E137.01471
G1 X93.593 Y40.755 E137.02339
G1 X93.676 Y41.380 E137.03179
G1 X94.376 Y41.387 E137.04049
G1 X94.440 Y42.030 E137.04940
G1 X95.131 Y42.046 E137.05834
G1 X95.175 Y42.709 E137.06677
G1 X95.840 Y42.751 E137.07547
G1 X95.876 Y43.422 E137.08427
G1 X96.540 Y43.466 E137.09324
G1 X96.565 Y44.147 E137.10146
G1 X97.194 Y44.226 E137.10993
G1 X97.199 Y44.928 E137.11868
G1 X97.831 Y45.003 E137.12774
G1 X97.804 Y45.737 E137.13663
G1 X98.412 Y45.837 E137.14535
G1 X98.380 Y46.576 E137.15419
G1 X98.976 Y46.686 E137.16314
G1 X98.924 Y47.446 E137.17153
G1 X99.478 Y47.598 E137.18006
G1 X99.379 Y48.405 E137.18946
G1 X99.851 Y48.286 E137.19900
G0 F10500 X100.377 Y49.882
G1 F2400 X100.303 Y50.309 E137.20423
G1 X100.818 Y50.501 E137.21278
G1 X100.854 Y51.172 E137.22079
G1 X101.023 Y51.710 E137.22936
G1 X100.912 Y52.175 E137.23873
G0 F10500 X101.009 Y52.151
G0 X102.007 Y54.616
G1 F2400 X101.869 Y55.107 E137.24936
G1 X101.967 Y55.716 E137.26019
G1 X102.032 Y56.359 E137.27187
G1 X102.086 Y57.011 E137.28399
G1 X102.116 Y57.688 E137.29632
G1 X102.137 Y58.375 E137.30793
G1 X102.122 Y59.097 E137.32066
G1 X102.083 Y59.843 E137.33407
G1 X102.036 Y60.597 E137.34653
G1 X101.946 Y61.395 E137.36000
G1 X101.827 Y62.221 E137.37443
G1 X101.653 Y63.102 E137.39030
G1 X101.411 Y64.051 E137.40768
G1 X101.152 Y65.017 E137.42426
G1 X100.603 Y65.920 E137.44497
G0 F10500 X100.962 Y66.268
G1 F2400 X100.180 Y67.049 E137.46662
G0 F10500 X100.507 Y67.430
G1 F2400 X99.530 Y68.406 E137.49368
G0 F10500 X99.793 Y68.850
G1 F2400 X98.683 Y69.961 E137.52446
G0 F10500 X98.807 Y70.544
G1 F2400 X96.947 Y72.404 E137.57600
G0 F10500 X96.862 Y73.196
G1 F2400 X94.791 Y75.267 E137.63339
G0 F10500 X93.883 Y75.468
G1 F2400 X92.051 Y77.300 E137.68415
G0 F10500 X91.487 Y77.157
G1 F2400 X90.390 Y78.254 E137.71455
G0 F10500 X89.878 Y78.059
G1 F2400 X88.959 Y78.978 E137.74002
G0 F10500 X88.536 Y78.693
G1 F2400 X87.767 Y79.463 E137.76134
G0 F10500 X87.421 Y79.102
G1 F2400 X86.711 Y79.812 E137.78101
G0 F10500 X86.323 Y79.492
G1 F2400 X85.536 Y79.925 E137.79795
G1 X84.592 Y80.162 E137.81481
G1 X83.738 Y80.309 E137.83005
G1 X82.901 Y80.439 E137.84519
G1 X82.110 Y80.523 E137.85856
G1 X81.345 Y80.581 E137.87134
G1 X80.602 Y80.617 E137.88452
G1 X79.881 Y80.630 E137.89723
G1 X79.182 Y80.623 E137.90948
G1 X78.518 Y80.580 E137.92140
G1 X77.871 Y80.519 E137.93309
G1 X77.225 Y80.458 E137.94473
G1 X76.601 Y80.375 E137.95581
G1 X76.010 Y80.259 E137.96605
G1 X75.426 Y80.137 E137.97627
G1 X74.840 Y80.015 E137.98685
G1 X74.262 Y79.885 E137.99734
G1 X73.722 Y79.719 E138.00686
G1 X73.186 Y79.547 E138.01657
G1 X72.469 Y79.557 E138.02677
G1 X72.317 Y79.002 E138.03698
G1 X71.459 Y79.153 E138.04658
G1 X71.296 Y78.609 E138.05561
G1 X70.476 Y78.722 E138.06499
G1 X70.336 Y78.154 E138.07443
G1 X69.554 Y78.230 E138.08312
G1 X69.393 Y77.683 E138.09114
G1 X68.644 Y77.726 E138.09940
G1 X68.513 Y77.149 E138.10814
G1 X67.747 Y77.208 E138.11729
G1 X67.657 Y76.591 E138.12663
G1 X66.920 Y76.621 E138.13553
G1 X66.840 Y75.994 E138.14452
G1 X66.112 Y76.015 E138.15363
G1 X66.039 Y75.381 E138.16266
G1 X65.355 Y75.358 E138.17094
G1 X65.282 Y74.724 E138.17902
G1 X64.620 Y74.679 E138.18724
G1 X64.566 Y74.025 E138.19575
G1 X63.888 Y73.996 E138.20458
G1 X63.860 Y73.317 E138.21355
G1 X63.213 Y73.258 E138.22226
G1 X63.207 Y72.556 E138.23101
G1 X62.567 Y72.489 E138.23984
G1 X62.567 Y71.782 E138.24870
G1 X61.957 Y71.685 E138.25708
G1 X61.985 Y70.950 E138.26573
G1 X61.369 Y70.858 E138.27490
G1 X61.440 Y70.080 E138.28470
G1 X60.827 Y69.987 E138.29437
G1 X60.897 Y69.209 E138.30362
G1 X60.313 Y69.086 E138.31250
G1 X60.401 Y68.291 E138.32156
G1 X59.843 Y68.142 E138.33082
G1 X59.963 Y67.315 E138.34028
G1 X59.395 Y67.176 E138.35002
G1 X59.536 Y66.327 E138.35963
G1 X58.998 Y66.158 E138.36914
G1 X58.993 Y65.456 E138.37910
G1 X58.835 Y64.907 E138.38939
G1 X58.677 Y64.359 E138.39934
G1 X58.518 Y63.810 E138.40895
G1 X58.375 Y63.245 E138.41907
G1 X58.266 Y62.648 E138.43032
G1 X58.162 Y62.044 E138.44185
G1 X58.076 Y61.423 E138.45364
G1 X57.994 Y60.798 E138.46468
G1 X57.937 Y60.148 E138.47621
G1 X57.906 Y59.473 E138.48850
G1 X57.875 Y58.796 E138.50018
G1 X57.866 Y58.098 E138.51228
G1 X57.909 Y57.348 E138.52555
G1 X57.955 Y56.595 E138.53812
G1 X58.038 Y55.805 E138.55191
G1 X58.175 Y54.961 E138.56722
G1 X58.311 Y54.118 E138.58141
G1 X58.514 Y53.207 E138.59761
G1 X58.803 Y52.211 E138.61615
G1 X59.278 Y51.383 E138.63485
G0 F10500 X58.947 Y51.007
G1 F2400 X59.744 Y50.210 E138.65694
G0 F10500 X59.437 Y49.810
G1 F2400 X60.252 Y48.995 E138.67952
G0 F10500 X60.040 Y48.500
G1 F2400 X61.101 Y47.439 E138.70892
G0 F10500 X60.862 Y46.970
G1 F2400 X62.523 Y45.310 E138.75493
G0 F10500 X62.636 Y44.490
G1 F2400 X66.094 Y41.031 E138.85077
G0 F10500 X66.779 Y41.053
G1 F2400 X68.431 Y39.402 E138.89654
G0 F10500 X68.917 Y39.623
G1 F2400 X70.041 Y38.499 E138.92768
G0 F10500 X70.475 Y38.772
G1 F2400 X71.378 Y37.869 E138.95270
G0 F10500 X71.748 Y38.207
G1 F2400 X72.496 Y37.458 E138.97345
G0 F10500 X72.853 Y37.808
G1 F2400 X73.580 Y37.082 E138.99358
G0 F10500 X73.896 Y37.472
G1 F2400 X74.712 Y37.009 E139.01170
G1 X75.600 Y36.828 E139.02758
G1 X76.465 Y36.671 E139.04288
G1 X77.302 Y36.541 E139.05745
G1 X78.074 Y36.475 E139.07050
G1 X78.847 Y36.410 E139.08345
G1 X79.591 Y36.373 E139.09618
G1 X80.164 Y36.154 E139.10820
G1 F600 E137.60820
G1 Z1.275
G0 F10500 X79.862 Y88.696
;TYPE:WALL-INNER
G1 Z1.175
G1 F600 E139.10820
G1 F1740 X81.810 Y88.874 E139.14653
G1 X82.525 Y88.941 E139.16060
G1 X84.523 Y89.515 E139.20134
G1 X85.259 Y89.728 E139.21635
G1 X87.178 Y90.720 E139.25868
G1 X87.883 Y91.086 E139.27424
G1 X89.597 Y92.478 E139.31751
G1 X90.229 Y92.992 E139.33347
G1 X92.132 Y95.336 E139.39263
G1 X93.127 Y97.255 E139.43498
G1 X93.490 Y97.958 E139.45049
G1 X94.067 Y99.957 E139.49126
G1 X94.277 Y100.690 E139.50620
G1 X94.457 Y102.640 E139.54457
G1 X94.522 Y103.357 E139.55867
G1 X94.344 Y105.308 E139.59706
G1 X94.278 Y106.023 E139.61113
G1 X93.491 Y108.755 E139.66684
G1 X92.499 Y110.674 E139.70917
G1 X92.131 Y111.381 E139.72478
G1 X90.740 Y113.093 E139.76801
G1 X90.225 Y113.726 E139.78400
G1 X87.883 Y115.628 E139.84311
G1 X85.963 Y116.624 E139.88550
G1 X85.259 Y116.988 E139.90102
G1 X83.261 Y117.564 E139.94177
G1 X82.527 Y117.774 E139.95673
G1 X80.578 Y117.954 E139.99508
G1 X79.862 Y118.019 E140.00917
G1 X77.912 Y117.841 E140.04754
G1 X77.197 Y117.774 E140.06161
G1 X75.199 Y117.201 E140.10233
G1 X74.466 Y116.989 E140.11729
G1 X71.840 Y115.628 E140.17524
G1 X69.495 Y113.724 E140.23443
G1 X67.590 Y111.379 E140.29363
G1 X66.229 Y108.752 E140.35160
G1 X65.656 Y106.759 E140.39223
G1 X65.446 Y106.025 E140.40719
G1 X65.200 Y103.358 E140.45967
G1 X65.267 Y102.642 E140.47376
G1 X65.445 Y100.691 E140.51215
G1 X66.018 Y98.694 E140.55286
G1 X66.230 Y97.961 E140.56781
G1 X67.224 Y96.041 E140.61017
G1 X67.591 Y95.334 E140.62578
G1 X69.495 Y92.990 E140.68495
G1 X71.840 Y91.086 E140.74414
G1 X73.758 Y90.092 E140.78647
G1 X74.467 Y89.727 E140.80210
G1 X76.462 Y89.151 E140.84278
G1 X77.195 Y88.941 E140.85772
G1 X79.146 Y88.761 E140.89611
G1 X79.862 Y88.696 E140.91020
G0 F10500 X79.364 Y93.703
G1 F1740 X77.575 Y93.880 E140.94543
G1 X76.922 Y94.079 E140.95880
G1 X75.859 Y94.401 E140.98057
G1 X74.277 Y95.246 E141.01571
G1 X72.887 Y96.385 E141.05092
G1 X72.456 Y96.913 E141.06428
G1 X71.751 Y97.771 E141.08604
G1 X70.906 Y99.354 E141.12120
G1 X70.385 Y101.072 E141.15637
G1 X70.319 Y101.751 E141.16974
G1 X70.207 Y102.856 E141.19150
G1 X70.385 Y104.644 E141.22671
G1 X70.905 Y106.361 E141.26186
G1 X71.228 Y106.963 E141.27525
G1 X71.751 Y107.943 E141.29702
G1 X72.889 Y109.329 E141.33216
G1 X74.277 Y110.468 E141.36734
G1 X74.879 Y110.789 E141.38071
G1 X75.859 Y111.314 E141.40249
G1 X76.513 Y111.511 E141.41587
G1 X77.576 Y111.835 E141.43765
G1 X78.256 Y111.901 E141.45103
G1 X79.361 Y112.011 E141.47279
G1 X81.146 Y111.835 E141.50794
G1 X82.864 Y111.314 E141.54312
G1 X83.465 Y110.992 E141.55648
G1 X84.444 Y110.469 E141.57822
G1 X85.833 Y109.331 E141.61341
G1 X86.265 Y108.803 E141.62678
G1 X86.972 Y107.944 E141.64858
G1 X87.817 Y106.360 E141.68375
G1 X88.015 Y105.705 E141.69716
G1 X88.337 Y104.644 E141.71889
G1 X88.403 Y103.964 E141.73227
G1 X88.515 Y102.858 E141.75406
G1 X88.338 Y101.071 E141.78924
G1 X88.138 Y100.416 E141.80266
G1 X87.817 Y99.354 E141.82440
G1 X87.494 Y98.752 E141.83779
G1 X86.972 Y97.772 E141.85954
G1 X86.537 Y97.244 E141.87295
G1 X85.834 Y96.385 E141.89470
G1 X84.631 Y95.398 E141.92519
G1 X84.443 Y95.246 E141.92993
G1 X82.864 Y94.401 E141.96502
G1 X81.147 Y93.881 E142.00017
G1 X80.468 Y93.815 E142.01354
G1 X79.364 Y93.703 E142.03528
G0 F10500 X79.363 Y94.206
;TYPE:WALL-OUTER
G1 F1500 X77.674 Y94.373 E142.06854
G1 X76.051 Y94.865 E142.10177
G1 X74.556 Y95.664 E142.13498
G1 X73.243 Y96.740 E142.16824
G1 X72.169 Y98.051 E142.20145
G1 X71.370 Y99.546 E142.23467
G1 X70.878 Y101.169 E142.26790
G1 X70.710 Y102.857 E142.30114
G1 X70.878 Y104.546 E142.33439
G1 X71.369 Y106.168 E142.36760
G1 X72.169 Y107.664 E142.40084
G1 X73.244 Y108.974 E142.43405
G1 X74.556 Y110.050 E142.46729
G1 X76.051 Y110.850 E142.50052
G1 X77.674 Y111.342 E142.53375
G1 X79.361 Y111.508 E142.56696
G1 X81.048 Y111.342 E142.60018
G1 X82.671 Y110.850 E142.63341
G1 X84.166 Y110.051 E142.66662
G1 X85.478 Y108.976 E142.69986
G1 X86.554 Y107.664 E142.73311
G1 X87.352 Y106.168 E142.76633
G1 X87.844 Y104.546 E142.79954
G1 X88.012 Y102.857 E142.83280
G1 X87.845 Y101.170 E142.86602
G1 X87.353 Y99.547 E142.89925
G1 X86.554 Y98.051 E142.93248
G1 X85.479 Y96.740 E142.96570
G1 X84.315 Y95.786 E142.99519
G1 X84.165 Y95.665 E142.99897
G1 X82.671 Y94.865 E143.03217
G1 X81.049 Y94.374 E143.06538
G1 X79.363 Y94.206 E143.09858
G0 F10500 X79.398 Y93.859
G0 X79.862 Y88.544
G0 X79.862 Y88.194
G1 F1500 X82.619 Y88.447 E143.15283
G1 X85.440 Y89.259 E143.21035
G1 X88.157 Y90.665 E143.27029
G1 X90.582 Y92.635 E143.33151
G1 X92.553 Y95.062 E143.39277
G1 X93.959 Y97.777 E143.45268
G1 X94.771 Y100.598 E143.51020
G1 X95.024 Y103.357 E143.56449
G1 X94.771 Y106.117 E143.61880
G1 X93.959 Y108.937 E143.67630
G1 X92.553 Y111.653 E143.73622
G1 X90.582 Y114.079 E143.79747
G1 X88.157 Y116.049 E143.85869
G1 X85.440 Y117.457 E143.91865
G1 X82.619 Y118.268 E143.97616
G1 X79.862 Y118.521 E144.03041
G1 X77.103 Y118.268 E144.08470
G1 X74.282 Y117.457 E144.14222
G1 X71.566 Y116.049 E144.20216
G1 X69.140 Y114.079 E144.26339
G1 X67.169 Y111.653 E144.32464
G1 X65.762 Y108.937 E144.38458
G1 X64.952 Y106.117 E144.44207
G1 X64.698 Y103.357 E144.49638
G1 X64.951 Y100.597 E144.55068
G1 X65.762 Y97.777 E144.60818
G1 X67.169 Y95.062 E144.66810
G1 X69.140 Y92.635 E144.72936
G1 X71.566 Y90.665 E144.79059
G1 X74.282 Y89.259 E144.85052
G1 X77.103 Y88.447 E144.90804
G1 X79.862 Y88.194 E144.96233
G0 F10500 X79.765 Y88.879
;TYPE:SKIN
G1 F2400 X65.385 Y103.259 E145.36081
G0 F10500 X65.428 Y103.923
G1 F2400 X71.518 Y97.833 E145.52956
G0 F10500 X70.730 Y99.328
G1 F2400 X65.488 Y104.570 E145.67482
G0 F10500 X65.548 Y105.218
G1 F2400 X70.422 Y100.343 E145.80990
G0 F10500 X70.188 Y101.285
G1 F2400 X65.607 Y105.865 E145.93682
G0 F10500 X65.746 Y106.434
G1 F2400 X70.109 Y102.070 E146.05774
G0 F10500 X70.031 Y102.855
G1 F2400 X65.903 Y106.983 E146.17213
G0 F10500 X66.061 Y107.533
G1 F2400 X70.095 Y103.499 E146.28391
G0 F10500 X70.159 Y104.142
G1 F2400 X66.219 Y108.082 E146.39309
G0 F10500 X66.376 Y108.632
G1 F2400 X70.240 Y104.768 E146.50017
G0 F10500 X70.404 Y105.311
G1 F2400 X66.610 Y109.105 E146.60530
G0 F10500 X66.851 Y109.571
G1 F2400 X70.569 Y105.853 E146.70833
G0 F10500 X70.733 Y106.396
G1 F2400 X67.093 Y110.037 E146.80921
G0 F10500 X67.334 Y110.503
G1 F2400 X70.974 Y106.862 E146.91009
G0 F10500 X71.220 Y107.323
G1 F2400 X67.575 Y110.969 E147.01111
G0 F10500 X67.841 Y111.409
G1 F2400 X71.466 Y107.784 E147.11156
G0 F10500 X71.745 Y108.213
G1 F2400 X68.159 Y111.799 E147.21093
G0 F10500 X68.476 Y112.189
G1 F2400 X72.064 Y108.601 E147.31035
G0 F10500 X72.382 Y108.989
G1 F2400 X68.793 Y112.579 E147.40982
G0 F10500 X69.110 Y112.969
G1 F2400 X72.701 Y109.378 E147.50933
G0 F10500 X73.078 Y109.709
G1 F2400 X69.427 Y113.359 E147.61049
G0 F10500 X69.772 Y113.721
G1 F2400 X73.466 Y110.027 E147.71285
G0 F10500 X73.855 Y110.346
G1 F2400 X70.162 Y114.038 E147.81517
G0 F10500 X70.552 Y114.356
G1 F2400 X74.254 Y110.653 E147.91777
G0 F10500 X74.715 Y110.899
G1 F2400 X70.942 Y114.672 E148.02232
G0 F10500 X71.332 Y114.989
G1 F2400 X75.176 Y111.145 E148.12884
G0 F10500 X75.637 Y111.392
G1 F2400 X71.723 Y115.306 E148.23730
G0 F10500 X72.147 Y115.589
G1 F2400 X76.152 Y111.584 E148.34828
G0 F10500 X76.694 Y111.749
G1 F2400 X72.612 Y115.831 E148.46140
G0 F10500 X73.078 Y116.072
G1 F2400 X77.237 Y111.913 E148.57664
G0 F10500 X77.824 Y112.033
G1 F2400 X73.544 Y116.314 E148.69526
G0 F10500 X74.010 Y116.555
G1 F2400 X78.468 Y112.096 E148.81881
G0 F10500 X79.111 Y112.160
G1 F2400 X74.475 Y116.797 E148.94729
G0 F10500 X75.014 Y116.964
G1 F2400 X79.842 Y112.137 E149.08106
G0 F10500 X80.626 Y112.060
G1 F2400 X75.564 Y117.122 E149.22133
G0 F10500 X76.112 Y117.280
G1 F2400 X81.478 Y111.915 E149.37001
G0 F10500 X82.493 Y111.606
G1 F2400 X76.662 Y117.438 E149.53161
G0 F10500 X77.211 Y117.596
G1 F2400 X83.792 Y111.015 E149.71397
G0 F10500 X85.797 Y109.294
G0 X87.521 Y107.286
G1 F2400 X94.100 Y100.707 E149.89628
G0 F10500 X93.941 Y100.158
G1 F2400 X88.111 Y105.988 E150.05783
G0 F10500 X88.418 Y104.974
G1 F2400 X93.783 Y99.610 E150.20648
G0 F10500 X93.625 Y99.060
G1 F2400 X88.563 Y104.122 E150.34675
G0 F10500 X88.642 Y103.337
G1 F2400 X93.467 Y98.511 E150.48047
G0 F10500 X93.299 Y97.972
G1 F2400 X88.665 Y102.606 E150.60888
G0 F10500 X88.601 Y101.963
G1 F2400 X93.058 Y97.506 E150.73239
G0 F10500 X92.817 Y97.040
G1 F2400 X88.538 Y101.319 E150.85096
G0 F10500 X88.418 Y100.732
G1 F2400 X92.575 Y96.575 E150.96615
G0 F10500 X92.334 Y96.109
G1 F2400 X88.253 Y100.189 E151.07923
G0 F10500 X94.162 Y101.352
G1 F2400 X77.856 Y117.658 E151.53108
G0 F10500 X78.504 Y117.717
G1 F2400 X94.221 Y102.000 E151.96660
G0 F10500 X94.281 Y102.647
G1 F2400 X79.152 Y117.777 E152.38585
G0 F10500 X79.799 Y117.836
G1 F2400 X94.340 Y103.295 E152.78879
G0 F10500 X94.281 Y104.062
G1 F2400 X80.565 Y117.777 E153.16885
G0 F10500 X81.344 Y117.705
G1 F2400 X94.209 Y104.840 E153.52535
G0 F10500 X94.138 Y105.619
G1 F2400 X82.123 Y117.634 E153.85829
G0 F10500 X83.013 Y117.451
G1 F2400 X93.954 Y106.510 E154.16147
G0 F10500 X93.669 Y107.502
G1 F2400 X84.005 Y117.166 E154.42927
G0 F10500 X84.997 Y116.881
G1 F2400 X93.383 Y108.495 E154.66165
G0 F10500 X92.715 Y109.870
G1 F2400 X86.373 Y116.212 E154.83739
G0 F10500 X87.934 Y115.358
G1 F2400 X91.867 Y111.425 E154.94638
G0 F10500 X88.089 Y99.647
G1 F2400 X92.093 Y95.643 E155.05733
G0 F10500 X91.810 Y95.218
G1 F2400 X87.898 Y99.131 E155.16575
G0 F10500 X87.652 Y98.670
G1 F2400 X91.493 Y94.828 E155.27220
G0 F10500 X91.177 Y94.438
G1 F2400 X87.405 Y98.210 E155.37672
G0 F10500 X87.159 Y97.749
G1 F2400 X90.860 Y94.048 E155.47928
G0 F10500 X90.543 Y93.657
G1 F2400 X86.852 Y97.348 E155.58156
G0 F10500 X86.533 Y96.960
G1 F2400 X90.226 Y93.268 E155.68388
G0 F10500 X89.865 Y92.921
G1 F2400 X86.214 Y96.572 E155.78505
G0 F10500 X85.881 Y96.198
G1 F2400 X89.475 Y92.604 E155.88464
G0 F10500 X89.084 Y92.288
G1 F2400 X85.492 Y95.880 E155.98418
G0 F10500 X85.103 Y95.561
G1 F2400 X88.694 Y91.971 E156.08367
G0 F10500 X88.304 Y91.653
G1 F2400 X84.714 Y95.243 E156.18315
G0 F10500 X84.287 Y94.964
G1 F2400 X87.914 Y91.336 E156.28367
G0 F10500 X87.473 Y91.071
G1 F2400 X83.826 Y94.717 E156.38472
G0 F10500 X83.366 Y94.470
G1 F2400 X87.008 Y90.829 E156.48563
G0 F10500 X86.542 Y90.588
G1 F2400 X82.900 Y94.229 E156.58654
G0 F10500 X82.358 Y94.065
G1 F2400 X86.076 Y90.347 E156.68956
G0 F10500 X85.610 Y90.105
G1 F2400 X81.815 Y93.900 E156.79473
G0 F10500 X81.272 Y93.736
G1 F2400 X85.135 Y89.873 E156.90177
G0 F10500 X84.586 Y89.714
G1 F2400 X80.646 Y93.655 E157.01096
G0 F10500 X80.003 Y93.591
G1 F2400 X84.037 Y89.557 E157.12275
G0 F10500 X83.488 Y89.399
G1 F2400 X79.359 Y93.528 E157.23717
G0 F10500 X78.575 Y93.605
G1 F2400 X82.939 Y89.241 E157.35810
G0 F10500 X82.371 Y89.101
G1 F2400 X77.790 Y93.683 E157.48505
G0 F10500 X76.848 Y93.917
G1 F2400 X81.723 Y89.042 E157.62014
G0 F10500 X81.076 Y88.983
G1 F2400 X75.833 Y94.225 E157.76541
G0 F10500 X74.337 Y95.014
G1 F2400 X80.429 Y88.922 E157.93423
G0 F10500 X78.986 Y88.951
G1 F2400 X65.456 Y102.480 E158.30914
G0 F10500 X65.528 Y101.702
G1 F2400 X78.207 Y89.023 E158.66048
G0 F10500 X77.428 Y89.094
G1 F2400 X65.599 Y100.923 E158.98827
G0 F10500 X65.829 Y99.987
G1 F2400 X76.491 Y89.325 E159.28372
G0 F10500 X75.498 Y89.610
G1 F2400 X66.115 Y98.994 E159.54374
G0 F10500 X66.411 Y97.990
G1 F2400 X74.491 Y89.910 E159.76764
G0 F10500 X73.027 Y90.668
G1 F2400 X67.172 Y96.522 E159.92987
G0 F10500 X68.522 Y94.465
G1 F2400 X70.971 Y92.016 E159.99773
;LAYER:4
G1 F600 E158.49773
G1 Z1.275
G0 F10500 X101.674 Y54.159 Z1.425
;TYPE:WALL-INNER
G1 Z1.425
G1 F600 E159.99773
G1 F2100 X101.276 Y52.578 E160.02968
G1 X101.408 Y52.930 E160.03705
G1 X101.575 Y53.616 E160.05088
G1 X101.674 Y54.159 E160.06170
G0 F10500 X100.209 Y49.484
G1 F2100 X100.277 Y49.682 E160.06580
G1 X99.841 Y48.782 E160.08539
G1 X100.209 Y49.484 E160.10092
G0 F10500 X97.511 Y44.994
G0 X93.462 Y40.934
G0 X88.712 Y38.158
G0 X83.874 Y36.723
G0 X82.717 Y36.579
G1 F2100 X80.710 Y36.418 E160.14038
G1 X81.658 Y36.442 E160.15896
G1 X82.717 Y36.579 E160.17988
G0 F10500 X81.696 Y35.943
